/* XPM */
static char *result[] = {
/* columns rows colors chars-per-pixel */
"64 64 248 2 ",
"   c #280D00",
".  c #350D00",
"X  c #2D1300",
"o  c #2E1901",
"O  c #271300",
"+  c #331500",
"@  c #3A1501",
"#  c #341B01",
"$  c #3B1C01",
"%  c #3C1D0B",
"&  c #341B0B",
"*  c #391E11",
"=  c #362101",
"-  c #3C2203",
";  c #3E2902",
":  c #3C230B",
">  c #3E290A",
",  c #37210A",
"<  c #3E2612",
"1  c #411D01",
"2  c #471C03",
"3  c #501F00",
"4  c #432403",
"5  c #4A2503",
"6  c #442B04",
"7  c #4B2B04",
"8  c #43250B",
"9  c #4B260B",
"0  c #442A0B",
"q  c #4B2C0B",
"w  c #522502",
"e  c #532E0D",
"r  c #572A08",
"t  c #4B3205",
"y  c #4C330B",
"u  c #483407",
"i  c #543B03",
"p  c #53330D",
"a  c #573A09",
"s  c #422612",
"d  c #452B12",
"f  c #4B2D13",
"g  c #482A17",
"h  c #532E13",
"j  c #572E14",
"k  c #463213",
"l  c #4D3314",
"z  c #4C321B",
"x  c #4C361A",
"c  c #533314",
"v  c #5A3614",
"b  c #543A14",
"n  c #5B3B15",
"m  c #53351A",
"M  c #5B361B",
"N  c #543A1C",
"B  c #5B3C1C",
"V  c #623D14",
"C  c #633C1C",
"Z  c #693B1A",
"A  c #6C3D0B",
"S  c #4B3524",
"D  c #553B23",
"F  c #5B3C23",
"G  c #563927",
"H  c #53362F",
"J  c #643C22",
"K  c #6A3E23",
"L  c #673E2A",
"P  c #703E23",
"I  c #5B420B",
"U  c #5A4308",
"Y  c #5C421D",
"T  c #5B4516",
"R  c #694E0D",
"E  c #644A0C",
"W  c #6C510D",
"Q  c #6A5006",
"!  c #644115",
"~  c #6A4316",
"^  c #634B12",
"/  c #6A4E13",
"(  c #65431C",
")  c #6B441C",
"_  c #6B4B1B",
"`  c #634B1B",
"'  c #72481C",
"]  c #6C5213",
"[  c #6B531B",
"{  c #66501B",
"}  c #715419",
"|  c #5D4324",
" . c #5C432B",
".. c #574228",
"X. c #5A4533",
"o. c #634424",
"O. c #6B4423",
"+. c #654A23",
"@. c #6B4A23",
"#. c #63452A",
"$. c #6C442B",
"%. c #644A2D",
"&. c #6B4C2C",
"*. c #744B2B",
"=. c #7C4B2B",
"-. c #764825",
";. c #6B5423",
":. c #6A522C",
">. c #6B5729",
",. c #76582A",
"<. c #654B33",
"1. c #6C4D34",
"2. c #634C3A",
"3. c #664A38",
"4. c #744C32",
"5. c #7C4E33",
"6. c #764C3A",
"7. c #6B5234",
"8. c #6C533B",
"9. c #645036",
"0. c #735433",
"q. c #7E5234",
"w. c #745A35",
"e. c #7A5C34",
"r. c #7C553B",
"t. c #755B3C",
"y. c #7A5B3B",
"u. c #72543B",
"i. c #7C633B",
"p. c #7B6435",
"a. c #77622A",
"s. c #6C5846",
"d. c #745C43",
"f. c #7C5E42",
"g. c #745847",
"h. c #6E4E49",
"j. c #7C6244",
"k. c #7A644A",
"l. c #7A6756",
"z. c #824C26",
"x. c #834D2B",
"c. c #884D2D",
"v. c #83512C",
"b. c #835326",
"n. c #985A29",
"m. c #844F31",
"M. c #835433",
"N. c #815D36",
"B. c #875836",
"V. c #925F36",
"C. c #986126",
"Z. c #84643C",
"A. c #8B653B",
"S. c #8A693E",
"D. c #846639",
"F. c #976638",
"G. c #9A713D",
"H. c #A66A37",
"J. c #B67638",
"K. c #AE6D32",
"L. c #91561C",
"P. c #825C44",
"I. c #846442",
"U. c #8C6642",
"Y. c #846944",
"T. c #8B6B44",
"R. c #83654A",
"E. c #896749",
"W. c #856B4B",
"Q. c #8B6C4B",
"!. c #936D43",
"~. c #946A45",
"^. c #8C734C",
"/. c #867149",
"(. c #947244",
"). c #93734B",
"_. c #9C7B4D",
"`. c #9A7749",
"'. c #846B53",
"]. c #8B6C52",
"[. c #846A56",
"{. c #8D7353",
"}. c #8D745B",
"|. c #867458",
" X c #937453",
".X c #9A7652",
"XX c #937954",
"oX c #9C7C54",
"OX c #95755A",
"+X c #9B7B5B",
"@X c #947C5B",
"#X c #A37D4D",
"$X c #A67848",
"%X c #B57A43",
"&X c #A27E52",
"*X c #A37E59",
"=X c #A56B44",
"-X c #886D65",
";X c #8C7364",
":X c #8A7869",
">X c #947264",
",X c #927D6D",
"<X c #977A68",
"1X c #8E7972",
"2X c #927D73",
"3X c #997975",
"4X c #A37F78",
"5X c #9C815C",
"6X c #9C8257",
"7X c #A6814D",
"8X c #A48254",
"9X c #A98353",
"0X c #A3835B",
"qX c #A9845B",
"wX c #AA895B",
"eX c #B1875D",
"rX c #93826D",
"tX c #9C8567",
"yX c #948273",
"uX c #998473",
"iX c #9B8974",
"pX c #9A877A",
"aX c #9D937A",
"sX c #A48362",
"dX c #A98A65",
"fX c #A58979",
"gX c #B08C7D",
"hX c #A7937A",
"jX c #B2967A",
"kX c #B38E64",
"lX c #9E8A80",
"zX c #AC8C83",
"xX c #AA8B85",
"cX c #B18E82",
"vX c #B18F8B",
"bX c #A69582",
"nX c #AC9282",
"mX c #AB9B85",
"MX c #AC9B8A",
"NX c #A69986",
"BX c #B29384",
"VX c #B69A88",
"CX c #ADA289",
"ZX c #B3A48B",
"AX c #BAA288",
"SX c #B4A291",
"DX c #BBA492",
"FX c #C4A997",
/* pixels */
"| /.|.%.1 G 6.6.h.P 6.$.J #.J + 8 %.w.w.w.p.i.t.Y o # z | # %.y.B 5 ^.0X6X8X6XA.U.E.R.tX1.1.l 4 f @ l '.'...g fXjX .z 1.y.j.t.l ",
"> :.W.f.s 2 L L L P J F L #.$ m d $ 8 b b T b 6 > 8.g G fXs # 4 1 1 j.5X8X_.A.A.S.I.E.@X7.3.B @ 8 $ &.AXfX8.+ z u.8 . 1 9 q 8 + ",
"4 # #.N $ 1 1 C $.4.K O.B 9 + m #.$ $ - + # = # #.FXg.% 8.D $ - : g W.5XS.p.D.S.(..X{.dXW.&.4 4.Q.o.1 c % . h M c J K J j r w e ",
"n 4 $ $ 4 4 @ $ 9 M 9 $ $ $ q 1 $ - t y a t t y + %.D # $ - 8 N #.g %.5X/.^.T.oX@Xk.7.X.j.k + c N.0.$ 1 8 m 4.6.5.B.m.5.m.M.-.-.",
"*.*.p 5 5 7 5 4 $ - - 4 7 4 6 t n [ / ^ [ _ / _ _ 7 5 t t 6 e.W. Xt.O :.tXk.k.8.H S S X.X., 8 - 9 4 q o.4 e 5.q.=.m.z.x.c.c.c.m.",
"M.q.=.( 5 5 y o.+.&.t 4 4 a _ _ W } W ] ] / } / / [ [ i 5 - +.i.0.q = - u > g < X.:XyXMXCXfX| 4 4 $ +.+X*.1 r.*.=.x.x.c.c.c.c.x.",
"=.M.-.r.O.$ c B | l o = u a ;./ W Q W W / / ' ] W Q W } E i # - 4 + 4 7 Y N o < pXMXZXbXmXk.$ q u u o T c 1 O.q.m.m.x.x.x.z.x.z.",
"z.x.m.-.4.9 + - = o 6 - b b E ] W Q W / / ] R R W Q W Q ] } ` 4 4 y +.i.E./.l > z  .9.k.k + 4 4 6 - 6 # $ $ C q.5.m.x.x.x.x.=.x.",
"x.m.m.m.4.8 * 1 s > > # T [ i U I R ] ^ / / R R ] Q W ] ] / { { = 7.{.W.Y.W.%.- - # $ + e ' ~ ~ 7 6 - y 5 $ c 4.P 5.=.x.M.=.=.M.",
"x.-.=.K 4.9 h.<XhX2., # u >.U i i U U U I E R R Q W ] ] / [ [ { = l w.0.P.E.y.8 t.t.4 C V.V.C.F.@.- y B B q 9 $.-.Z Z -.K ) *.-.",
"Z P K J $.1 >XDXnXnXg # 6 T I U i U U U i a E E [ ] W W { { [ ,.y o - @ 1 9 9 4 d.].N C A.F.n.F._ 1 o.o.$.m 2 J $.Z C Z K K J K ",
"J K Z L f.@ $ [.BXfXD > ; T [ i U i U U a I i E U W W U I { T u = 4 e v j w 1 4 @ F 4 5 q.b.b.b.-.$ 5 h M 8 $ M r.*.L K Z J J O.",
"L L 4.L 5 $ q X 1.d.- = 6 u p.>.^ U U u a a i i i U U ] } T u ; + p S.F.V.F.v 7 6 7 y + O.~.q.A.O.1 1 $ $ $ 1 B $.L r.$.j M J J ",
"h.4.J @ + 4 7 J 4 + - y u b T [ a.a.a.>.T I ^ { ,.a.a.[ T 6 = o - v M.V.A.F.} $ ` ;.p $ 1 v e 5 @ $ f 5 0 0 # l N h c M J 4.4.L ",
"G % . @ b ( S.0X*X+.- - 6 6 u 6 u U T ;.a.p.a.;.` b u 6 # O # > 4 - O.M.M.=.r # - = - 0 4 1 @ @ 4 6 l N x ; = = 0 z f h M J L g.",
"+ % 4 &..XwX8X8X&X0X,.- 6 ; ; ; ; ; > u u I a u 6 ; = o = l l = 0 - 1 v w 2 @ 7 6 b n B O.C C n e - y | k x fXk.0 4 8 h j 9 g 9 ",
"8 $ B dX9X`.9X#X8X&X8XO.$ # = $ = = > > > k u ; = X 4 y.XX0X).n 6 - 4 4 4 2 7 n ! ) ) ) ) ) _ ' ~ ! 4 $ + }.FXhXq 4 9 4 4 8 % # ",
"9 1 *.qX8X#X7X7X#X8X.X).y 0 0 = = = ; > > o o o # 6 Q.dXsX0XoX0Xy.a q 0.@.7 p ( ) ) ~ ~ _ ' ~ Z ~ Z ( n 8 0 l 0 - 4 $ + + $ % <.",
"4 4 @.8X_.#X#X9X9X(.Z. Xt.6 #.%.o , o O + - u 6 7 (.kX(.)._.oXY.^.| 6 B f 5 v ( @.' _ V ~ ) O.) ) ( o.B k d $ 0 W. X).E.,.$ n b ",
"- $ v 6X6X8X8X8XA.Z.Z.+X{.f $ = , > x %.1.N.U.,.v qXE.U.T.e.W.i.7.%.# # + # v ( Y _ ) ) ! ! V n n e b | g x d t.sX+X0X8XwXT.4 @ ",
"0 6 Y 6X8X8X6XS.A.T.U.).W.7.l - > 0 1.W.E.E.r.C 9 E..XOXOX{.'.<.:.: %.7.0 # q b T ! n n n v v p q B | f , # & 7.Q.Y.T.oX.X0Xi.$ ",
"0 > t.XXoX).S.D.T.I.Y.W.W.&.<.- 6 - 5 6 p c 5 $ $ 9 L %.G G 8.2.D O D x # # 0 o.B n a p y p v b B | l # o : $ x XX XZ.E.sX0XE.4 ",
"- - p.6X/.S.D.S.Z.Z.E.tXR.%. .- 7 6 4 5 n T p 5 q = @ , : * z g o  .: o d # 0 l N Y | ( o.| F F n 4 > N z s 8 8 z ].XXf.].sXQ.q ",
"d - ..6Xi.Y.D.^.XX5X+XdXk.%.m - 5 _ N.S.T.(.e.4 - N x 8 : * X , [.mXbX[.g o > 0 = 6 0 y b B f 4 # X 0.OXt.0  ., f m W.].}.R.OXF ",
"0 > # /.jXXX6X5X|.j.<.t.{.B = 4 5 -.e.N.B.) $ 1 2 @ d l , 8 3.hXSXMXMXDXfX..& - > > - - 0 - o + + 4 B o.( c 8 # : 0 t.7.&.j.W.d ",
"> y o | 7.%. . .D G F  .#.- # 6 4 1 5 2 w w r -.*.M.r 1 - 8.AXCXmXnXSXbXMXfXX., < o = o o # : 8 e.N.N.U.E.R.0.8 = - | &.:.| b o ",
"; - l o # s s : < g < s = 4 n b V 5 5 w A C.%XJ.%X$XG.a 5 gXAXhXMXmXMXZXpX,XrXD > , d N d > % &.0XkXqXqX&X*X.Xe.6 - 6 ; ; ; u k ",
"l 6 - j.uX<X-X-XH & s % 0 T.6X8X8XA.3 r C.J.J.K.J.J.C.b.e hXmXmXbXSXMXpXyXrXiXl.X.,  .j.%.$ 8 u.oX#X`.&X_.&XqX8Xe.= 6 +.p.i.S.p.",
"X 8 # f.hXVXDXFXFXh.% : F +X0X6X6X_.4 =.H.C.K.K.K.H.n.F.8 -XSXmXCXNXNXyXrX1X:Xl.l.X.< ..$ #  .XX(.D.A.G.(.(.`.*XoXy 7 +.a.w.| u ",
"G D z % g g.;X[.2.S G : l XX^. X/.T.5 =.K.L.n.n.n.L.V.$Xf H SXNXmXCXyXyXyX1XpXrXs.s.< > > 8 ].0X&X!.#X#X*X$X$X*X).y = % = = 6 6 ",
"BXzXfXzX8.o & # o W.DX'.+ #.OXE.}.].% j $XH.H.H.H.H.=XF.f G bXmXCXrXyXl.l.l.pX:Xg.k.g x $ l W.+X8XG.#X9X*XeX*X.XI.c h s J ].fXjX",
"vXvXcXnXfXg > 0 : l tXsX4 : P.8.%.d # M _ ' z.b.x.z.V 4 $ h.uXaXyXrXyX1Xl.s.l.aXg...& : > 8 | XX6X_._.&X(.(.~.~.B + 3.>XVXVXBXgX",
"xXvXcXzXfXh.& 0 y 6 0 y 4 $ 8 - @ $ - $ $ 5 j 5 5 4 - l z X.,XyX:XyX1XlXlXl.X.X.9.: ..|.k.> z 8.}.^.Y.Z.Y.D./.y.4 ].VXjXgXgXgXgX",
"vXzXcX>X,X,X8 6.W.Y.:.= 6 - 8 - 6 7 7 p 9 @ $ q I.j.b d < & g.lXlXpXyXlXl.X.< < > # b %.<.0 # N t.I.{.{.W.Y.j.$ F VXgXgXgXcXcXcX",
"fX>X>X>XfXh.% g.1.F 0 - u p 6 b ! @.( C ) o.v h o.Q.Q.8 > z < ;XyXl.s.X.X.X.< , # # #.F 8 4 g $ 0 B y.t.| q 0 x % R.vXBXxXvXcXzX",
">X>X>X3X>X. @ f m @ @ y w.` 6 b ( ! ) O.) ( ) C e 9 l - 7.[.z s H S X.S S X.s.rX].D | f.m 1 M 4 $ @ @ # + 4 7.>XG % 3XzXxXfX3X1X",
"3X3X4X3Xf 1 r..X*X0X0.4 q - o ( @.V ) -.) V ! @.) v $ 5 M 4 8 x D < O 9.CXCXDXDXDXf.. @ 1 9 9 M K J $.M C 9 @ J j . H 3X1X-X3X1X",
"3X3X3Xh.M .XdX*X&X8XqX(.7 $ - b ( _ ! ! ' _ ! V ( @.M @ 8 # $ 1.j.F # | l.rXtX}.G 1 g j $.q.m.5.5.5.M.=.=.-.J @ . H s L 3XpX3X3X",
"-Xl.L g Q.qX&X8X9X(.8X.XE.f - 7 ( ) ! ~ / ~ ! ) ( O.B 9 $.@.y + b 8 5 8 4 l l x % d F @ J 5.5.m.M.=.z.=.M.M.=.-.9 P.P.g g.;X-X-X",
"h.H g s oX8X#X&X#X!.A.T.Q.N - 4 C n n ! ! ! ~ ! o.C c c y.o.4 q @.N.(.oX.X0X0XtXOXF @ @ M 5.5.5.x.z.c.x.x.z.x.M.j J ].s z s.h.g.",
"* * 3Xu.XX8X(.7X_.A.S.E.Q.F 4 $ v v q a a a a p v b M + 5 5 e.8X8XeX*X#X8X#X8X6X+X XB $ 9 4.4.m.m.x.c.x.x.=.M.q.9 2 h % % s m g ",
"g h.AXf.6X7X7X6XS.S.(.N.OXF f # l #.v p 7 v p v v M B + o.0XoX*X*X$XeX#X7X9X_.8X6X^.#.8 4 $.K K O.Z Z -.-.O.=.$.9 2 d 8 F R.Q.P.",
"H @ m B 6X8X(.S.T.Z.Z.E.OXF y.b y F N o.b p p p C B 5 O..XsX0X&X#X9X$X9X$X7X8X_.).e.| = $ #.0.$.$.*.4.$.-.4.$.K g ].W.d f r.4.o.",
"2 9 4 @ ` T./.i.I.W.XXW.F $ J 4 : f l l | Y #.( b + i.sXT.(.8X8X&X9X#X$X7X7X7X(.XX>.N = $ 4 v 4 f 8 m J J u.#.8 g 8.u.x . . @ 1 ",
"G.7Xb.1 $ h 0.<XrX].t.D # - - + # : g g f f N 4   e.dX8XS.D.(.8X9X&X8X#X9X9X!.).6X| - 0 l - 4 4 + , % $ % 1 % + > : = $ v ' F.H.",
"J.H.F.A O.E.@ F X.x : D t.^.I.f > : & < % & @ X o.oX&X`.(.wX(.A._._._._.(.G.~.oXj.B = ..p.i.D.D.F : L B 1 3.3.s D R.e.e =.$XK.%X",
"K.H.c.F.3 L f - l = o d.R.B d +  .<.#   X : - 0 ^.8XwX8X(.eX#XD.w.D.D.S.B.U.oXOX .0 # > b >.a.,.#.X g 8 h OX].F @ 5 w ' H.%XJ.K.",
"n.n.n.=Xr 2 h XX5Xj.k = k d.[.uXiXuXuX[.z s F F XX8X_._.#XG.A.S.Z.Z./.Y.I.sX+X4.x # x b k 6 - # + g L <.m @ f - f B 1 x.%XK.J.K.",
"C.H.=X=XZ P r.*X*XqXXX4 | MXSXSXCXCXCXZXjXl.# #.W.Z.T.Z.S.A.A.A.T.D.S.Y.oXOXd.| : $ 4 0 l = & g.4XcXVXvXgXF $ 8 B &.1 ' =XF.H.n.",
"F.F.B.Z w h $.+XsX.XdX:.O |.NXfXNXNXaXaXjXAXN q +X+XP.~.Y.T.T.D.D.Z.(.5X<Xk.%.g @ t.).;.6 # z >XfXcX4X4XX.& s D g + $ v ~.V.~.F.",
"V v w @ c q 0 j. X].{.d.o 9.yXrXyX-X9.d.l.}.x N %.W.<XE.i.j.S.Y.).0X5X{.Y.<.l + 0.8X8XwX!.( $ $ g G L : O 9.uXZXhX8.: % h C Z Z ",
"@ + + | }.t.$ %.R.k.d. .# x l.s.k.g.D = T > 3.x f | t.5X}.^.5XtX5X/.i.7.t.| # m  X8X#X7X9X#XO.2  .x o g |.ZXCXaXmXDX}.: @ 1 2 2 ",
"0.&. .k u ; # 0 ..D  .- # $ = l c f $ q = $  .Y g  .3.8.@XtX/.j.8.<.<.<.<.> + f.+XdX`.#X7X#X(.v #.j.> |.ZXhXCXCXCXCXZX|.- 0 ,.e.",
"Q.Q.{. .= :.:.0 # , - $ b n - #.t w n n a - p.jXj.d 7.3.j.t.&. . .<. .x d : 8 | .XoX9X9X(.A.U.0.# x %.tXCXZXaXCXaXhXiXrXN b w.Y.",
"A.S.Y.j.k #.b 4 = 6 b v ( ) 6 + i / ;./ ,.>.u > - # 0 <.8.<.| | F m m l 8 5 4 l I.0X&X8XS.S.^.w.= 0 %.hXCXCXCXMXCXrX-XuX3.# :.j.",
"q.,.C 6 # $ 4 B m 4 p q v p + p [ ] W ] ] ,.{ u 0 t.7.$ m F h h h 4 4 p ( o.4 c +. XoXXXi.Y.W.k.y 6 0 tXtXCXNXNX1X1XyXiX3.# 8 | ",
"2 h 5 7 4 4 B 1.d @ % s 8 + 6 ;.T E U U U { u u Y R.<.. h K j L r.8 O.&.) ( B q #.I.XXXX}.|.@X<.l 0.| tX[.DXNXyXyX1X1XyX9.: = # ",
"1 B.U.V.B.7 @ 2 1 f h 0 % - y [ U U U U { T ; > o @ 9 F $.L j J L 1 m v B ( C 8 %.8.7.8.8.i.2.<.B y.0 |.'.bX2XrX1XyX,XaX .N w.6 ",
"r m.V.~.,.2 j L P -.$.*.%.l 4 p >.>.>.| ..> U o 1.m 4.r.r.P.m.1 g % g f 5 4 1 $ f 1. .#. . .9.x # 0 > k k.iXrX:XrXrXrXk.> w.S.T ",
"3 B.F.x.3 2 L m.x.v.=.q.q.O.9 # = = = # > k o > +X1.J 6.4.4.$.9 cXg.8.0.e 4 q 4 @ g ..F |  .l : N x > , D s.:XrXyX:Xl.Y ; p.>.U ",
"r F.B.r 1 r x.=.z.z.b.z.=.q.*.9 # # o   O # X @ % + m 4.&.J $.9 R.l = t e.7XwXoXy.5 X y +.4 1 I.{.{.- > : X.rXuXl.l.X.& > k = = ",
"3 O.Z 2 1 K m.m.c.z.z.z.z.=.q.C g d.D = 0 0 %.0.o.q + L F J m @ # = ,._.7X`.#X8X0X+Xo.q T.B @ c +.0 o | D X < X.S & & % , > N l ",
"b # # @ j 6.=.=.z.z.z.c.x.m.5.v - B 7.w.I.T.Y.W.W.W.m % 8 % % 2 8 0.wX7X7X7X7XoX*XE.@X#.0 $ 4 c c # B :.N > D [.X.& g 1.y.R.Q.T.",
"| k  ., g 6.5.x.5.m.=.x.x.m.L 9 8 7.I.T.Y.T.Z.E.I.w.l @ + s [.'.%.@.9X7X7X$X9X_.U.I.Q.sXF q 9 P. Xo.0 0 @ d hXVXgXG L W.E.E.S.D."
};
