/* XPM */
static char *result[] = {
/* columns rows colors chars-per-pixel */
"64 64 256 2 ",
"   c #030119",
".  c #0B011C",
"X  c #18051B",
"o  c #13101C",
"O  c #2D1401",
"+  c #2B1704",
"@  c #2B120A",
"#  c #331500",
"$  c #3B1501",
"%  c #341B01",
"&  c #3B1C01",
"*  c #331B0B",
"=  c #3B1D0B",
"-  c #381E11",
";  c #3C2202",
":  c #392405",
">  c #3C230A",
",  c #3A2414",
"<  c #0C0124",
"1  c #070529",
"2  c #130223",
"3  c #14052C",
"4  c #180728",
"5  c #19152A",
"6  c #0D0B33",
"7  c #180935",
"8  c #0E1834",
"9  c #181637",
"0  c #1D1434",
"q  c #1B133C",
"w  c #23032B",
"e  c #25192B",
"r  c #260537",
"t  c #261839",
"y  c #311233",
"u  c #392A2E",
"i  c #29223A",
"p  c #471B03",
"a  c #421D01",
"s  c #432303",
"d  c #4B2507",
"f  c #442B04",
"g  c #4B2B04",
"h  c #43250B",
"j  c #442B0B",
"k  c #4A2C0C",
"l  c #532A0A",
"z  c #4A3306",
"x  c #4C320B",
"c  c #543B03",
"v  c #55370A",
"b  c #452B12",
"n  c #462916",
"m  c #4B2D13",
"M  c #532E14",
"N  c #592D13",
"B  c #4C3314",
"V  c #4B3319",
"C  c #533314",
"Z  c #5B3716",
"A  c #543B15",
"S  c #53341A",
"D  c #543A1C",
"F  c #5B3C1C",
"G  c #683A0E",
"H  c #673A1A",
"J  c #643B1C",
"K  c #483426",
"L  c #553B22",
"P  c #563827",
"I  c #5B3C23",
"U  c #4D3635",
"Y  c #643B23",
"T  c #693D24",
"R  c #703E22",
"E  c #5A4308",
"W  c #5B420A",
"Q  c #5B4319",
"!  c #674C0D",
"~  c #695006",
"^  c #6C510D",
"/  c #6A4E13",
"(  c #67471A",
")  c #73461C",
"_  c #6C5213",
"`  c #6B521B",
"'  c #715517",
"]  c #574426",
"[  c #5C4224",
"{  c #5C432B",
"}  c #5A4432",
"|  c #634424",
" . c #6B4324",
".. c #63452A",
"X. c #6C442B",
"o. c #644A2D",
"O. c #694C28",
"+. c #764726",
"@. c #744B2C",
"#. c #7C4B2B",
"$. c #6A5428",
"%. c #76572A",
"&. c #654B32",
"*. c #684B37",
"=. c #744C33",
"-. c #7A4D36",
";. c #6B5233",
":. c #655139",
">. c #6D543B",
",. c #735433",
"<. c #785636",
"1. c #755B3C",
"2. c #7A5C3C",
"3. c #78632D",
"4. c #7B6338",
"5. c #1C0342",
"6. c #191943",
"7. c #2B0245",
"8. c #360448",
"9. c #281945",
"0. c #361747",
"q. c #390556",
"w. c #371A55",
"e. c #1E264A",
"r. c #282547",
"t. c #33294A",
"y. c #2C2A55",
"u. c #362956",
"i. c #343554",
"p. c #383458",
"a. c #3A0363",
"s. c #342666",
"d. c #393966",
"f. c #471158",
"g. c #4B2C53",
"h. c #473A5A",
"j. c #480568",
"k. c #530E6E",
"l. c #680D74",
"z. c #4C3B68",
"x. c #52326D",
"c. c #6A3779",
"v. c #3D4670",
"b. c #564652",
"n. c #6A544E",
"m. c #765A44",
"M. c #7D6244",
"N. c #7A644A",
"B. c #7B6655",
"V. c #47456B",
"C. c #484A75",
"Z. c #554877",
"A. c #575377",
"S. c #68566D",
"D. c #645B77",
"F. c #676274",
"G. c #844C27",
"H. c #834C2B",
"J. c #84512B",
"K. c #975B2A",
"L. c #834E31",
"P. c #835332",
"I. c #865838",
"U. c #915F37",
"Y. c #82643C",
"T. c #89663C",
"R. c #986539",
"E. c #AC6C36",
"W. c #846443",
"Q. c #856A44",
"!. c #8A6B44",
"~. c #856548",
"^. c #856B4B",
"/. c #8B6C4C",
"(. c #936B45",
"). c #89724B",
"_. c #98764B",
"`. c #866A53",
"'. c #8C6858",
"]. c #8D7353",
"[. c #887459",
"{. c #967757",
"}. c #9C7D54",
"|. c #AE7343",
" X c #A77945",
".X c #A37D4D",
"XX c #A27D54",
"oX c #8A7466",
"OX c #8A746D",
"+X c #967867",
"@X c #967B74",
"#X c #9F824F",
"$X c #9A815B",
"%X c #A5814C",
"&X c #A48254",
"*X c #A98557",
"=X c #A4835B",
"-X c #988369",
";X c #998574",
":X c #9D9379",
">X c #A88864",
",X c #A7897A",
"<X c #A7947B",
"1X c #B1927C",
"2X c #580A84",
"3X c #721489",
"4X c #74308B",
"5X c #7512A3",
"6X c #5A5986",
"7X c #53528A",
"8X c #70518B",
"9X c #5C6D8D",
"0X c #696798",
"qX c #716F92",
"wX c #7475A4",
"eX c #862D94",
"rX c #8615B1",
"tX c #972AA0",
"yX c #9730AC",
"uX c #83599B",
"iX c #866B92",
"pX c #8E51A6",
"aX c #AB47B5",
"sX c #8B79AA",
"dX c #A66EB7",
"fX c #AB23D5",
"gX c #AF30D2",
"hX c #D13AED",
"jX c #B353CA",
"kX c #CF69DE",
"lX c #CE49E8",
"zX c #EB4FF8",
"xX c #F070F8",
"cX c #7581A5",
"vX c #8D8391",
"bX c #AC8C84",
"nX c #B18F84",
"mX c #AA9885",
"MX c #B69787",
"NX c #B4A48B",
"BX c #B2A28D",
"VX c #8D8AB1",
"CX c #A399B7",
"ZX c #C4A997",
"AX c #9896C4",
"SX c #A292C6",
"DX c #95A4C7",
"FX c #ABAAD2",
"GX c #B4B9E2",
"HX c #C8B1CE",
"JX c #D5A4E9",
"KX c #BAC4E0",
"LX c #C9CFF2",
"PX c #F3CCF9",
"IX c #D1E1F8",
"UX c #FAE9FE",
/* pixels */
"{ ).[.o.= I =.m.m.R -.T T Y P * h &.,.,.4.4.4.1.D O = V ] % { 2.F s ).*X#X*X=XT.(.~.~.+X;.;.m a M & m `.`.P V ;X1Xo.m =.m.M.1.B ",
": $.^.M.b p T T T T T P T *.$ I j & j A A A A f j >.n { ,Xb ; ; a a ^.$X$X_.T.T.T.Y.~.+X;.;.F & s & o.NX,X>.# V >.h # a k k h # ",
"s % | D & & p J T =.T T I d # S ..& & ; % & ; % ..ZXn.= m.S : s h m ^.$XY.4.T.T._.{.{.>X^.o.d =./.| s C a # C S N Y T Y N l d l ",
"Z s & & d s $ & n N d p & a k & & ; z z c z z z % o.S & & > s D ..n { $X).).).}.{.^.:.&.1.B # C I.,.a a h S =.-.-.I.L.L.P.L.#.+.",
"@.O.N g g d g & & ; ; s g s f z v ' ` / ` ` ) ` ( g g f g f <.Q.].1.O ;.>XB.M.1.K K K U } : h ; k s x | d d -.-.L.L.H.G.G.L.L.K.",
"I.J.@.J d s x | | O.z ; s v ( ` ! ' / / / / _ ! / ` ' c f s O.4.,.k & ; > > b , :.oX;XmXBX,X] s s % O.}.@.a I.+.#.H.H.H.G.G.H.G.",
"#.H.@.P.) & C F Q A % ; z v $./ ^ ~ ^ _ / / ) ' ^ ^ ^ ' ! c # ; s # f f Q A : > :XmXmXmXmXN.; k f z % A C &  .<.L.L.H.G.H.G.G.H.",
"G.H.P.@.@.d # ; : + > : W v ! _ ^ ^ ^ ! / ' ! ^ ^ ~ ^ ~ _ ' ( s s x | 4.^.).B > V } >.N.B O s p f ; z % % s J -.#.L.#.H.H.H.H.H.",
"H.L.L.#.-.h = > h , > : Q ` c E E ! ! ! / _ _ ^ _ ! ^ _ ^ ` Q B.; ;.).^.~.~.O.; : % & # l ) ) ! g f ; k d & Z @.R L.#.J.P.#.#.P.",
"H.#.#.T =.p >.+X,X:.: : f $.E E E E E E W W ! _ ! ^ _ _ ` ` n.vX* V >.,.W.~.2.h m.<.s J T.T.K.R.` ; x F D k d X.X.T H +. . .@.+.",
"H R R Y X.p '.ZXnX1Xn % : Q W E E z E E c E ! ! ' _ ^ ! Q Q VXvX, + s # p d k h m.].F F R.R.K.U. .s ( ..X.S p Y R H H H T J J  .",
"H T Y X.<.* = `.mX,XL > : E ` c E E E E W v c c E _ ~ z Q VXFX0Xu , b Z N d a s # F d s %.J.G.J.+.$ d C S d $ S -.=.X.T H T Y T ",
"T T m.T s & k # ;.m.: ; z z 3.$.! E E z v E E c E E E Q qXFXwX7X9 r.u } =.T.v g s z x $  .(.J.T. .a a & ; ; ; F X.T -.X.N Z T Y ",
"m.T Y $ # s g I s # & x z Q Q $.$.3.3.$.Q W W ` ' $.] A.FX7Xz.sXq q i t e I ( & ( $.x & a Z N s # s m s j , & B F M S S Y =.=.T ",
"P p @ $ A ( T.=X}.O.; s : z z : E E Q $.3.3.3.Q E z b.cXv.1 AXwX9.6.t 9.0 5 o % ; : ; k s a $ $ d f x D D : ; % j V M M N Y T m.",
"@ = h X.}.*X&X&XXX=X%.f f : : z : z : : z Q ] u u cXVX6.5.0XFXsXe.u.6 7 r.e . h.U , Q Q | J J Z k ; x | j A ,XN.j h p S S m n n ",
"h a ( >X&X_.%X%X%X.X=X| ; % ; % : : : > K F.F.cXFXVX6.e.0XDXGXCXu.t.r.6 4 i i   D.h.P Q ( ( ( ) ( G s & O ].ZX1Xk s h d = s > % ",
"k s =.=XXX.X%X.X.X*X_._.x h j ; % : : , F.wXGXGXA.1 C.VXFXLXwX9 p.u.p.y.9 6 9 q 9 A.t.V J ) ) ( G ( ( F j b B j = s & # # & = *.",
"a a O.=X.X.X.X*X*X(.T.].2.h ..{ + : @ D.DXGXwX8 i.DXDXLXLXA.1 t t r.t.r.r.i.e.6 6 y.C.i.u ( ( ) ) ( T F m b : b /._._.!.%.& Z A ",
"= ; v XX&X*XXXXX!.I.Y.}.].x ; ; : , b.9Xd.6.8 cXKXLXIXDXs.1 q 5 4 4 1 1 y.6X7X7Xy.6.6Xr.t n G Z Z x B I m V b 1.-X}.=X=X>XT.s & ",
"z f Q $X=X&X_.!.T.!.!.].^.;.B ; > K U 6 8 C.DXIXIXLXF.8   5 t . 5 2 0 V.C.V.v.0X0XwXs.1 o 5 , C x F [ B : * & :./.!.!.XX}.=X4.& ",
"f : 1.$X}._.T.T.T.Q.!.^.Q.o.;.> f , o i.6XDXLXKXA.8   o 4 . . < . . . < 9.p.d.d.9XDXe.1 t t.o n F [ B O O : % S ].].Y.!.=X=X!.s ",
": > 4.$X).T.T.T.Y.4.Q.}.^.o.{ ; j @ t.Z.CXFXD.8 1 9 3 < < 7 7.t 4 4 w . < 3 6.i.p.d.y.y.3 p.h.X V s s D V b h > V ].{.m.].+X/.m ",
"j ; ] $X4.Q.Q.).}.$X+X,X~.o.K : = e z.wX8X6.1 9 q 3 < g.7Xg.w.r 4 X w X 4 2 3 7 r.6.r.r.y.2 b.t.o O <.{.1.b { : m S /.].'.~.{.I ",
"> > : ).1X{.$X$X].M.&.1.].D = - , y.6XZ.6.3 r 7 3 e Z.sX8XS.0.7 3 4 w X w 4 . 4 7 t 7 6.y.1 y.h.5 + F | | m h % ; m 1.;.o.M.^.m ",
"j x + Q ;.&.{ { L P { { { : @ b.A.d.q 9.t 3 t 2 r 0.iXHXPXsXw.8.w 2 w y w X 4 2 2 2 9.7 6 6.9 h.t.5 { W.!.!.,.d ; ; [ O.;.Q V % ",
"f : B + # , n - , n h > * , F.D.6.i.t.t.0 4 2 4 w g.HXUXUXUXuXx.q.q.q.7.r 2 4 X X 4 4 5 8 8 1 r.i.e u _.XXXX}.<.s : f : : z z z ",
"x f : M.>XoXoXOXU * n = , n.vXy.y.i.p.t.0 4 . t w OXHXUXUXPXuXk.j.j.2Xa.8.0.4 4 r w t w 5 8 5 q V.r.r.U }.XX=X=X%.: f $.4.4.Q.4.",
"O > % N.1XMXBXZXZXn.> > K FXqX7 p.Z.Z.t.7 4 0 3 y D.dXPXPXdX2X4X5X5XyX5Xj.8.3 4 w w w t.5 5 6 6 A.C.y.i 2.(._.XX}.z x O.3.$.O.f ",
"L I V = n m.oX`.*.K L j CXVXr.w.x.9.t r 3 2 7.0.r r x.dXpXl.l.5XfXlXhXgXk.7.4 w f.r w y e t r 5.d.0Xd.i.*..X.XXX].k ; & % : > z ",
"nXbXbXbX:.+ : % # ^.;XFXF.9.u.y.r w 4 X X 2 y w.r 7.8.4Xl.l.5XrXfXzXhXhXeXj.7.r f.q.8.r 2 y w.5.s.7XsXZ.b.*XXX}.Y.C m h Y /.,X1X",
"nXnXbXnX,Xn > x ; C @XvXU h.9.9.r f.y 0.0.4 f.g.r 7.8.q.k.rX5XfXhXzXzXhXeXj.8.f.l.j.f.dXf.0.4Xa.s.0XAXA.b.(.(./.F $ *.+XMXMXnX1X",
"bXnXnXnX,Xn.= p x f j j K b.4 u.0.y 4 0.g.f.8.c.7.5.7.a.2XrXfXhXzXxXzXkX3Xl.l.l.l.l.dX8X7.q.uXx.s.0Xs.3 n.N.^.2.s `.1XnX1X1X,X1X",
"MXbXbX+X+XOXn *.^.Q.;.; s u t.r.qXc.r 4 r f.y 4Xg.5.a.a.2X5XfXhXzXzXkXxXl.l.l.l.eXpX4X5.q.7Xx.7 7X8X1 b.:.^.M.% F MX1XnX1XnXnXnX",
"iXXX'.+XbXn.@ ~.;.D f ; x b t.4 0.qXCXZ.3 4 w g.uXr a.a.2XrXgXlXzXxXxXtXeXl.f.eXeXf.7.u.z.Z.2 y Z.< r.U [ k b S & `.MXnX1XMXnXbX",
"+X+X+X@X'.# p n S & & x ,.] , i 9.r.A.FXFX8Xf.r c.f.5.a.2X2XyXgXjXaXl.eXaXl.eXaXc.k.s.w.V.9.. t.t 1 u % # ; =.{.P = @XbX1XiX@XOX",
"@X+X@XXXm p <.XXXX>X-.s k s O 0 r.v.i.v.VXGXf.r r 4Xf.f.k.j.k.l.l.l.tXaXl.l.kX'.7Xs.d.9XV.  4 t   K P Z J d $ I P $ U OX@X+X@XOX",
"iX@XiXI.S }.>XXXXXXX=X_.k & > , 6 i.C.v.d.6Xu.r r r f.g.j.k.3XeXtXkXjXtXaXxXaXeXs.v.cX0X1 1 0 . u U -.#.@.@.Y $ $ P p *.@X@XiX@X",
"'.'.-.N /.*X.X*X*X_.&X_.~.k ; b 0 1 d.C.v.d.z.u.r r w r f.f.k.3XeXjXtXkXkXpXpXs.C.DXDXe.1 1 t S.b.Y H.H.L.P.#.+.p I.~.n m.'.{.+X",
"c.U u p }.&X.X.X.XT.T.!./.D ; ; K 9 8 d.v.d.d.s.0.r y r r q.f.l.3X3XeXpXeXuXu.wXGXGXv.1 1 p.8Xg.J G.H.H.H.G.H.I.N Y '.n n m.n.m.",
"* - ;X<._.#X_.%X.XT.T.!./.I s ; b X . 6 i.d.y.y.u.u.9.0.c.pX4X2Xk.k.c.8Xc.h.V.qXcX9X1 1 t.iXg.P L.H.H.H.H.G.P.<.n p M = = b S n ",
"n n.MX2.$X#X*X#XT.T.(.Y.{.I m & M U e     e.e.e.6.9.u.w.x.8XdXk.w.x.z.f.y r.r.8 1 1 6 5 9.U P H R  .H +.+. .#.X.p p n p I ~.~.~.",
"S & Z F #X#X(.T.!.Y.Y.^.{.I 2.C m L n.V.5   1 1 7 9.9.u.4XsXJX8Xx.9.2 e 0 5 r.1 6 1 6 4 X &.=. .X.X.=.X.+.=.X.Y n `.`.m M <.=.Y ",
"s g s & ( !.).Y.W.^.{.).I $ Y s ; m n u h.i . 1 1 7 1 w.AXSXGX8Xu.z.9.  1 i 1 1 1 3 3 g.g.h C s C h M Y Y >...h n m.>.S O O $ p ",
"E.%XJ.p = M ,.+X-X`.1.L & ; ; % + = n n o e 5 . . < 3 3 7 8XqXp.9.z.h.h.t < 3 q s.7.g.n.m ; g s # > = & = a = # h > a a N #.U.R.",
"E.E.R.G  .~.$ { { V , D 1.].M.B > > % > : 5 X i i   < 3 1 t h.t.9.7 7 9.  < z.u.9.b.F.] 1.4.Y.Y.[ & I I a >.*.b L Q.<.l #.|.E.%X",
"E.R.G.R.p Y m ; V : + 1.M.D b O { :.# @ O h - t 5 i 5   5 3 q u.3 < 0 < t h.i y b.n.% > A $.3.%.| # n h M '.`.I # g c ) E.|.E.E.",
"K.K.K.|.l p M {.$XN.x : V m.`.,X;X-X;X`.K > ] L n.o 5 0 < 1 7 6.6 0   0 V.U ~.*.m # D B x f ; % # n ..*.S & m s m F l K.|.E.E.E.",
"E.R.E. XH  .I.>X}.*X_.: ] BXNXBXBXBXBXBX<XB.% | /.M.1.K e < 7 6.9.< 0 b.m.{.m.Y > & s f B : = m.@XbXMXMX<X] : > I O.a )  XU.E.K.",
"R.R.P.G d l X.{.XXXX>XO.+ B.mXbXmXmX:X:X<XNXD k {.{.m./.M.:.6 9.1 t n.].-XM.&.b & ,._.$.s & n oX1XbX@X@X} : > L m % & Z (.U.R.R.",
"G Z d p B m k M.'.].].M.+ :.;X-XOX[.:.m.[.[.D D o./.XX`.M.Y.Q.0 n.OX[.].~.&.B % ,.=X*X*X(.( & = V P R n + :.;XBX<Xn.> a M N H T ",
"& # # [ ].1.; { ~.B.m.{ + D B.n.B.m.P : Q > o.V n [ M.+X{.).$X-X+XN.4.;.1.] % D ].&X X%X*X}.) s Y V # V B.BXBX:XmXNX[.> $ p p p ",
"=.o.o.B > f + k L L { s % & : B C m & x & ; $.] b | &.>.-X-X).M.;.&.o.&.&.> O m.}.>X_. X*X#X(.v ..m.> [.NX:XBXmXmXBXNXB.> k $.Y.",
"!.].].] % $.$.k % : > a A Z ; [ z g Z v v : 4.<XM.b ;.&.M.,.o.{ { &.{ L n > h | {.XX*X*XR.T.!.<.: V $.-XNXNX:XBXmX<X;X-XD A 4.T.",
"T.!.!.M.B ] A d ; > A Z H ( f # c / ' / %.$.z : ; % > &.>.&.| [ I S B B h s s C Q.$XXXXX!.T.).1.: k ] <X<XmXBXBXmX;XoX;X:.% o.4.",
"%.#.Q d ; ; s D B f x k Z x % v ` ^ / ` ! 3.` : k 1.>.& C [ M m C s d k ( O.s k X._.}.{.Y.Q.Q.M.k j k -X-XNXmXmXF.;X;X;X*.% h [ ",
"p l d l f s F *.k $ = n p # f $.W ! E E E $.z E Q ~.X.# S T M T 2.d  .O. .( F h | ~.{.].{.[.oXo.x ,.[ -XB.BXmX;X:X-X@X;X:.: ; % ",
"p -.R.U.I.g $ $ a m M b = : g ` E E E E ] E z : O = p Y T T N Y T $ S Z F ( ( h ..>.;.>.:.M.:.o.[ 1.k [.B.:X;X;XB.;XOX:X{ V ,.f ",
"l I.R.(.%.p l T  .@. .=...C s v $.$.$.[ ] z z + ;.S *.m.m.I.L.p n - m m d s & & V &.{ o.{ { ;.L & j : B N.:X-XOX;X:X;XN., 3.T.Q ",
"d I.R.J.p p =.L.H.J.#.J.<.X.k # : + : + z V + : {.*.Y -.=.-.X.d nXm.>.=.k s m p $ m ] I { [ B : D D , : K m.oX-X:XB.B.] : 4.$.E ",
"l R.U.l $ N H.#.G.G.G.G.#.<.#.k % + % O O % O % a $ S =.X.T X.k ~.B a z %.&X*X}.2.d O x | s & W.].].; > > } ;X;XB.N.U * : B : : ",
"p ) H p p R L.L.G.) G.G.G.+.L.J m m.L ; > j | <...n % Y P ..S $ % & %.%X*X X#X&X>X{.Y k /.Z & Z [ x + ] L O , } K - * = , : Q x ",
"A % % & M -.#.L.H.H.H.G.G.L.-.M & D ;.1.Q.Q.Q./././.S = h = = h h ,.>X%X%X%X.XXXXX~.{.[ f & d B C % F $.V h P `.*.* K =.1.Q.).!.",
"Q m { = n =.-.H.H.I.#.L.H.H.X.d d ,.Q.!.Q.!.W.W.W.;.C = # h ~.`...O.%X%X%X X*X_.!.~./.>X[ k b I.].[ j k % b 1XMX1XP I /.~./.T.Y."
};
