/* XPM */
static char *result[] = {
/* columns rows colors chars-per-pixel */
"64 64 253 2 ",
"   c #060000",
".  c #0C0301",
"X  c #0E0903",
"o  c #120500",
"O  c #140A02",
"+  c #1B0C02",
"@  c #170C09",
"#  c #1B1208",
"$  c #160E10",
"%  c #1B1512",
"&  c #230C01",
"*  c #280C00",
"=  c #380D00",
"-  c #271507",
";  c #2C1301",
":  c #2C1A0C",
">  c #331501",
",  c #3C1501",
"<  c #341B01",
"1  c #3B1C01",
"2  c #331B0C",
"3  c #3A1D0B",
"4  c #271815",
"5  c #251B14",
"6  c #2B1C13",
"7  c #331E13",
"8  c #3B1F10",
"9  c #2E210D",
"0  c #3C2202",
"q  c #3A2507",
"w  c #3D230B",
"e  c #2C2117",
"r  c #2D221B",
"t  c #342214",
"y  c #3C2514",
"u  c #3A2B16",
"i  c #34241A",
"p  c #3A261A",
"a  c #3C2A1D",
"s  c #362B26",
"d  c #3B2C23",
"f  c #352E2B",
"g  c #3C3124",
"h  c #3C332C",
"j  c #431D01",
"k  c #481C03",
"l  c #432303",
"z  c #4B2706",
"x  c #442B04",
"c  c #43250B",
"v  c #442B0B",
"b  c #4A2B0B",
"n  c #542909",
"m  c #4A320A",
"M  c #55370A",
"N  c #422613",
"B  c #462716",
"V  c #452B13",
"C  c #4B2C13",
"Z  c #442C1B",
"A  c #4B2E1B",
"S  c #532E14",
"D  c #592D14",
"F  c #4C3214",
"G  c #473319",
"H  c #4C321C",
"J  c #533314",
"K  c #543B15",
"L  c #53341B",
"P  c #593819",
"I  c #5B3B1C",
"U  c #683A0E",
"Y  c #67391A",
"T  c #653B1D",
"R  c #432E22",
"E  c #443324",
"W  c #4C3423",
"Q  c #44352B",
"!  c #49382A",
"~  c #4C3A2C",
"^  c #543524",
"/  c #553B24",
"(  c #5B3C24",
")  c #533B2B",
"_  c #5A3E2D",
"`  c #473A35",
"'  c #553B35",
"]  c #543D34",
"[  c #643C23",
"{  c #6A3E24",
"}  c #703E22",
"|  c #5C440B",
" . c #5B4319",
".. c #67491A",
"X. c #704D18",
"o. c #5C4223",
"O. c #5C422B",
"+. c #584429",
"@. c #4C423A",
"#. c #534334",
"$. c #5C4333",
"%. c #544936",
"&. c #53443B",
"*. c #5B483A",
"=. c #634224",
"-. c #6B4425",
";. c #63442C",
":. c #6C442B",
">. c #654B29",
",. c #6B4C2D",
"<. c #774727",
"1. c #754B2C",
"2. c #7C4B2B",
"3. c #6B5329",
"4. c #77532C",
"5. c #614533",
"6. c #654A33",
"7. c #6B4C34",
"8. c #644B3B",
"9. c #694C39",
"0. c #744C32",
"q. c #7A4D36",
"w. c #685237",
"e. c #6C523C",
"r. c #735233",
"t. c #7D5233",
"y. c #76593A",
"u. c #7B6339",
"i. c #3E4346",
"p. c #4B4543",
"a. c #494646",
"s. c #424649",
"d. c #45494C",
"f. c #4B4B4C",
"g. c #544B44",
"h. c #584B47",
"j. c #544C4B",
"k. c #55524C",
"l. c #5C544C",
"z. c #4B4E51",
"x. c #574F51",
"c. c #4D5154",
"v. c #5B5552",
"b. c #585555",
"n. c #5D5B5B",
"m. c #654D43",
"M. c #6C5444",
"N. c #65554A",
"B. c #745A46",
"V. c #7B5D43",
"C. c #635A54",
"Z. c #665856",
"A. c #6A5D54",
"S. c #645D5B",
"D. c #725950",
"F. c #5D6059",
"G. c #7A6348",
"H. c #6A6053",
"J. c #65615E",
"K. c #6A625D",
"L. c #766457",
"P. c #5E5D62",
"I. c #635E61",
"U. c #646263",
"Y. c #6B6563",
"T. c #6D6966",
"R. c #69656B",
"E. c #6E6B6B",
"W. c #726A65",
"Q. c #756965",
"!. c #736D6B",
"~. c #707066",
"^. c #75716D",
"/. c #7A726D",
"(. c #6E6D72",
"). c #746D73",
"_. c #757373",
"`. c #7B7573",
"'. c #7E7975",
"]. c #787778",
"[. c #7D7B7B",
"{. c #844C27",
"}. c #834C2B",
"|. c #84512B",
" X c #995B29",
".X c #834E31",
"XX c #835333",
"oX c #845939",
"OX c #915F39",
"+X c #83633C",
"@X c #8A663D",
"#X c #99653A",
"$X c #A76B38",
"%X c #B16E33",
"&X c #846443",
"*X c #856A44",
"=X c #8B6B44",
"-X c #866548",
";X c #856C4C",
":X c #8E6D48",
">X c #8B6C4C",
",X c #98774B",
"<X c #866A54",
"1X c #8D6858",
"2X c #8D7252",
"3X c #85725A",
"4X c #967757",
"5X c #9C7D54",
"6X c #AE7243",
"7X c #A57C4A",
"8X c #A27E53",
"9X c #876B65",
"0X c #8A7568",
"qX c #957768",
"wX c #827A74",
"eX c #887976",
"rX c #837C7B",
"tX c #957B75",
"yX c #7F827B",
"uX c #9C8258",
"iX c #A5824D",
"pX c #A48254",
"aX c #A4835B",
"sX c #A98558",
"dX c #97826A",
"fX c #84817E",
"gX c #8A817D",
"hX c #8F897D",
"jX c #988475",
"kX c #9E947C",
"lX c #A78865",
"zX c #A8897A",
"xX c #A6947C",
"cX c #B1917C",
"vX c #7E7E81",
"bX c #817E81",
"nX c #7F8180",
"mX c #858282",
"MX c #8A8583",
"NX c #8D8988",
"BX c #918884",
"VX c #928D8A",
"CX c #948F8D",
"ZX c #989492",
"AX c #AC8C84",
"SX c #B18F83",
"DX c #AA9886",
"FX c #B69787",
"GX c #A29B99",
"HX c #B5A38B",
"JX c #B3A38D",
"KX c #A5A1A2",
"LX c #C2A897",
/* pixels */
"+.;X;Xw.3 ( 0.M..X{ q.{ _ { _ > c 6.y.r.u.u.u.y./ ; q H +.0 O.G.P l :XaX5XpX8X#X:X-X-XdX7.7.C j C 1 F <X<X+.A jXcX6.A r.V.&Xy.F ",
"x 3.;XG.N k { { 9.{ { ( { 5.j ^ v < x K M  .| x q e.h &.K.h ` h @.a.f.f.k.H.y.@X@X*X-X4Xe.7.P 1 c 1 :.HXzX9.; C y.x > 1 c b c > ",
"l < o.P 1 j j T { q.{ { I b > L +.0 < q ; q q : %.Y.U.]._._._._.].(._.R.].I.P.s.l.;X3XlX;X6.l r.:X=.l J c > C ^ D [ [ Y D n z n ",
"K l 1 1 l l , 1 B D z j , 1 b j q q m | M K @.T.MXZX_.E.Y.P.E.`.T._.U.I.(.b.P.vXE.c.a.@.u.F 1 S +Xr.1 j k L 0.q.q.oX.X.XXX.X2.<.",
"1.1.D l z z l 0 1 0 0 0 z l x M | X...+.C.vXCXMXNXMX!./.T.Y.!.S.Y.v.v.^.W.v.n.I.R.mXnXP.s.f v 1 b l m =.l b 0..X}..X}.}.{..X.X X",
"XXt.1...z z M =...3.m 0 x M ....X.X.w.yX[.].mXrXNXmXS.U.`.'.rXY.K.&.C.T.I.j.Y.W.b.R.].CXZXR.j.3 l 1 >.5X1.k oX1.2.}.}.}.{.{.}.}.",
"2.|.<.XX..j S I o.F < 0 x | 3.X.X.~._.U.NXMX`.bXMXmXJ.Z.gXrXgXwXW.W.k.C.T.`.S.].mXNXR.[.nX(.(.d.v m < K J j -.t..X.X}.{.{.{.}.}.",
"{.}.XX<.0.z > 0 q ; q q | | | X.M.KXCXE.bXmXNX_.`.^.K.C.`.wXgX`.T.K.Y.K.K.`.^.!._.NX].vX_.].CXP.s.u x 0 1 0 T 4.2..X}.2.}.}.}.{.",
"}..X.Xq.0.B 3 c y v w q  .3.M | [.rXNX`.I.rX`.rXMXW.).S._.VXMXmXT.K.^.T.E.fXfX!.`.`.^.J.fXmXmXNXc.s.w b c 1 J 0.} .X2.|.XX2.}.|.",
"{.<.2.} 0.z 9.qXxX8.q 0 x 3.| '.VX`.!.wX`.Y.`.rX].rXfX].Z.!._.W.T.T.J.F.^.gX^.^.VXfXT.`.rX'._.VX].s.z.I I b z -.:.[ Y <.-.-.1.-.",
"Y } { [ { k 1XLXSXxXZ < q ..>.NXrXrXwXgXwXZ.!.'.rX`.j.s % O @ X X # X $ f v.J.wXgXW.Y.BX'.gXfX`.bXP.i.j.:.P k [ -.Y Y Y Y { { { ",
"[ { Y :.B., 3 <XSXzX/ q q | yXnXMX/.^.^.K.T.K.v.h o   # 6 # i d s r 5 e o   O h v.^.K.Y.W././.fX[.MXb.s.P l , P t.0.:.{ [ [ T -.",
"{ { q.:.l 1 C > 7.V.0 0 m m NXyXNXVX'.^.rX^.s . . s Q Q d E t u 9 a R ! ~ Q e . . Q l.K.!.^.^.gXmXmX[.s.s.0 0 I :.=.q.-.D D { [ ",
"B.{ _ , > l z  .0 > 0 v m >._.].T.'.^.Y.g.@   h Q R p Z Z A A N / ) t w Z a g ! d O # h.v.v.n.Y._.U.[.U.f.v 1 F I S D P [ 0.0.{ ",
") k * j M ..@XaX5X>.0 x x %.yX].[.].].p.  @ s e 6 ~ $.*.B.:.r.7.,.B.[ 5.5.~ Z t g 5     @./.E.P.K.U.T.[.a.u 0 0 v H J S P [ 5.oX",
"> 1 c ,.5XsXpXpXpXaX4.x x yXZXZXmXyXyXc.X 5 @ g ) M.$.V.V.7.oXoXy.oX;.e.5.6.M.) d - 5 . c.].yXmX].`.[.~.d.@.jXG.v c c A D B B B ",
"N , I lXpX,XiXiXpX7XsX=.1 VXZXCX_.].`.k.  e s %.$.B.6.e.t.1.=XXXoX-X7.y.e.9.M.$.] 7 i   v.mXNXVXNXgX_._.z.c.LXcXv l l c l c 3 1 ",
"b l 4.aXpX7XiX7X7X8X,X,Xb KXGXVXyXT._.x.X ` d %.M.V.e.y.r.=.y.t.oX>X0.y.7.5.9.) _ p g O C.`./.bXZXhX_._.d.d.F v 0 l 1 > > 1 0 6.",
"j l -.aX8XiX7XsX8X,X+X,Xy.VXZXrX].].eXj.@ Q a h.M.e.5.0.y.-.oXt.0.-X;.B.O.6.e.[ 6.N Z O H./.Q.BXVXMX[.yXz.s.0 V >X,X,X=X4.1 P K ",
"1 1 K pX8XpX8XpX=X+X+X4X2XNXNX`.bXeXbXx.. ` A.E h.8.$.{ 6.;.6.( [ 0./ +.! ~ $.) *.B ! o N.gXL.Q.wXrX[.].c.i.V y.dX5XaXpXsX*X0 1 ",
"m q  .uXaXpX,X=X@X=X*X2X>XbXrXY.).Z.U.b.@ s bXtX9XBXAXbX0XeXeXL.L.L.L.Z.C.H.H.D.A.7 d O H.fX~./.!./.R.S.c.s.< w.2X*X=X8X5XaX+X1 ",
"q q u.uX5X,X@X@X=X@X=X;X;X!.!.S.J.Y.T.@.% h !.`.bXbX`.`.I.).Q.).).L.T.Z.J.J.K.K.D.d Q X g./.!.!.S.!.(.U.c.d.q L 2X2XoX-XlXaX=Xl ",
"q q u.uX=X@X@X@X+Xu.*XuX-XE.mXrXVX'.mXx.  f R.W.R.R.I.R.I.I.f.f.j.p.a.a.a.f.p.h.p.r h $ a.v.j.Z.I.wXbXbXz.s.w w H 2X2X&X<XlX>XC ",
"V q  .uXG.*Xu.2X5XdX4XzX-X].VXMXfXrX].b.  h ` X $ @ $ $ $ $ X $ @ $ X $ @ $ O # 6 6 h X p.U.U.R.`.rXbXCXd.s.O.0 C L <X2X2X-X2X( ",
"x q q ;XcX,XuXuX2XG.6.y.2XmXMXBXfX`./.l.. i i #.&.m.#.#.%.#.! ~ ) ] &.@.g.%.! ~ ^ i i + &.^.!.wXwXrXmXMXc.d.v < 0 v u.w.;.G.;XF ",
"x F <  .w.6.+.O.) / O.O.=.rXfX'.rXrX!.h.+ 6 d A.M.L.G.B.B.e.w.e.D.B.B.D.L.H.3X$.m.p 7 # l.gX/.rXrX[.[.fXd.d.0.l 0 c  .3.w. .K ; ",
"x q F ; < N N 8 p B N c 1 gXMX`.`.!.S.p.O e : t Z W V V V N C H V w W Z E y Z Z A : : O l.gX_.rX`.rX[.].z.d.4Xt.x 0 x q m q m m ",
"m x q G.dXqX0X0X' 2 N 3 c rXrX!.U.S.v.h.O Q - : ; ; ; < > ; > > > < + + o + 5.8.* : d . k.mX].!.Y.!.]._.z.d.lX8X4.q 0 3.u.u.@Xu.",
"; w 1 V.xXFXHXLXLXm.3 w o./.Y.K.J.F.n.p.# @.6 *.~ ^ ^ *._ ^ ' ^ ^ _ Z - & $.m.: Z i h O k.nX(.P.n.S.E.U.z.s.,X8X5Xm m >.3.3.3.x ",
"/ o.W 3 V B.qXL.8.W ^ c J K.R.Y.^.Y.rXg.X Q t &.) ) _ 8._ W 5._ 5.8.E & #.L.: 8 5.t i o k.E.U.R.Y.Y.E.U.z.s.8X8X,Xm 0 1 q q x x ",
"SXAXzXAXe.; 0 0 < ;XHX<X< W.rXrX^.!.GXZ.. R Z O.W ( ;.0.7.J [ P L 6.* H <XW & ( 7.y u O h.J.S.`.!.E.`.].z.s.8X5X+XJ C N [ <XzXcX",
"FXAXAXSXzXZ w v 0 J lXdXl !.MXMX[.!.eXl.+ ) Z $.;.;.[ ,.:.S P L P N 1 L.9.* B ^ 8.B a O %.l.h.S.S.!.mXMXf.s.:X>XI > 7.qXFXFXSXcX",
"SXFXSXAXzXD.3 w m v v v l `.wXZX).!.!.N.o ) u 7.5.7.^ ;.0.L [ ^ B * 9.V.* 8 ) _ N.p g . h.S.l.K././.[.ZXd.d.>Xy.c 2XFXcXcXcXzXcX",
"FXbXAXqX0XqXN 0.>X*X3.0 x wXrX`.rXrXwXC.o ! Z M.;.5.[ 0.[ L A A * ) L.3 * _ ^ *.N.h d . l.wXC.H.!.`.nXZXz.s.G.< P FXcXSXcXSXSXSX",
"tXqX4XqXAXm.3 B.w.I v 0 m Q.rXwXZXVXeXh.o ~ G w.;.O.;.7.5.A H * p L.W ; 2 : 7 7 Q 4 f @ @.T.S.J.T.E.E.[.z.f.V H 3 <XFXSXFXFXAXAX",
"qXqXqXtX9X= k B J 1 1 m 4.K.].'.rXMXZXA.o E y $.;.5.( e.5.H , * B.) & - ! N.Z.C.Z.5 r @ @.E.T.^.MXfX[.[.c.d.7.4X( 3 qXAXbXbXtX9X",
"tXqXzXqXB k t.5X8XlXr.l x A.!.T.Y.T.wXg.O ! u O.6.9.5.e.e.N * 8.9.* 7 & ] `.!./.!.r 4 . k.W.P.!.Y.!._._.z.i., [ ^ = ^ tXtXqXqXtX",
"bXzXbX.XP 5XlX8X8X8XaX,Xz h.Y.[.gXNXZXC.. a t 8.6.5.9.6._ * _ B.2 8 i % j.I.I.Y.j.% s X p.U.n.U.].rX[._.f.i.[ , k ^ k ' tXSXtXtX",
"bXD.q.D >XsX8X8X7X,X8X5X-XA.Y.gX`.yXVXN.+ @.t ] O.5.) ) 3 Z N.B 1 ^ 7 o ` I.b.f.x.5 7 O p.rX]._.NXNXrX].d.s.2.1.k oX-XB -X9X9X9X",
"m.' B k 5XsX7X8X7X:X@X@X2XY.Y.[.'.fXBXl.o ! i 8.) W ) 3 2 M.^ * H ^ Z @ s.z.I.d.x.s 4 o k.CX[.bXrXgXbXmXz.a.|.t.D ' 1XB A m.D.oX",
"8 B tXy.,XiX,XpX5X@X@X@X:XK.!.rX'.yXfXl.O %.t m.$.W B * ) ' : 3 [ ;.8 e ` $ f % r ` r O h.wXJ._.rXNXmXmXz.6.XXXXn k S > 3 B ^ C ",
"B m.FXB.5XpXsX,X@X@X:X+X4XQ.W.rXhXBXfX%.O %.t 8._ R o W $.> 2 Z ( _ y p ` $     f h d O &.W.b._.VXNX_.(.f.;.1.:.B k V c ( -X<X&X",
"' k D ^ uXiX,X@X=X+X+X=X4XW.MXNXZX'.fXv.O ~ a *.W * 2 *.B & R / ( ( L 7 d @.C.J.l.i d & &.W.J.Y.!.wXMX[.z.9.-.=.B <X<XV F y.1.[ ",
"k k k k ..=X=Xu.&X;X4X>X( A.fXrXT.T.^.%.O @.a #.p * 8.B & p ) ^ =.L H Z t d Q &.Q 4 d o g.K.S.^.K.E.bX`.c.e.;.c B q.y.L > = , , ",
"$X7X|.k 1 S e.qXdX<XB./ 1 l.U.Y.^.T.W.k.O ] t ] 2 W ^ * 2 Z H W +./ V V Z Z a E &.6 Q @ g.Y.J.k.Y.S.E.E.c.N 3 > w q 0 0 D 4.#X$X",
"7X$X#XU -.-X, =.+.G q / y.wX^.U.J.T.hXl.. ! : o p O.& + ; & + & ; > ; ; > 2 ; - - 4 s   p.S.k.K.S.S.R._.c.9.7.c ( &Xy.n 2.$X%X6X",
"%X X{.#Xk [ C 0 G q < y.G.W.T.Z./.].rX&.O i : ! ~ W w Z y H G H ^ u G F v N Z W Q 5 5 X p.J.k.n.Y.U.J.E.z.<X2X( > x n X.%X6X%X%X",
" X X X6Xn k J 4XuX*Xu q F K.Z.wX'.^.VXl.- 5 a N.*.*.M.H.e.M.8.D.B.G.G.e.B.G.M.B.N.h 5 X a.J.f.v.v.Y.U._.f., C l F I z |.iX%X%X%X",
" X$X$X,XY -.t.lX4XlX,X0 +.^.!.fXgX`.VXC.o e 6 ! Q ~ ~ #.' ] d ! ) ) ) ! W ' ' ~ E t 4   f.J.n.c.J.J.'.nXz.o.0 q ( >.j ..6X#X$X X",
"$X#XOXU n n :.5X8X8XlX,.; H.W.wXVX'.CXH.  h @.o # 5 # + & o - 4 # 4 o * & & - & 6 4 s . p.n.U.Y.l.S.[.].@.9 y I F < j P -XOX#X#X",
"P Y z 1 F C c G.4X2X2XB.; A.T.W.fXZXZXn.  f ^.W.Y.Q.K.T.I.x.x.j.p.h.p.h.p.p.&.p.` 4 4   j._.~.T.K.J.'.].g w.hXJXxXM.w j S Y Y Y ",
"1 > > I 2Xy.0 >.-XG.B.O.< h.Y.!.T.`.].j.$ f J.!.eX!.).eXQ.bXR.).(.I.).I.!.K.Q.K.I.d s o k./.K.~.J.S.T.^.H.HXHXkXDXJX3Xw , j k k ",
"r.,.>.F q x < v / / +.c 1 A.wXwX[.R.rXC.  f T.b.Z.x.v.Z.x.Z.x.I.b.x.I.x.Z.N.Z.h.N.7 s o %.gXwX0X/.^.^.yXkXxXJXDXDXJXHX3X0 v 4.u.",
"=X>X2Xo.< 3.3.b < q 0 1 K wX^.Z.).!.MXv.X ` @.h ` ` Q @.` d Q s Q ` s R d E ' Q ~ 7 i . l.VXhXfX/.^.U.yXkXJXkXJXkXkXdXdXL K u.@X",
"@X@X>XG.G >.K q 0 x M K T rXNXMX].bXNXn.$ f e h ` ] d Q ] Q #.u R ! 7 R u E ~ E g t g X l.hX'.!.K.W.J.wXxXDXJXDXJXhX9XjXw.< ,.u.",
"4.4...l 0 < l I L 0 M n P rXBXVXNXR._.b.  r % r 6 d - t 7 t 9 9 * - ; - : t t t t 5 5   v.yX^.R.J.~.T.0XdXDXDXDXwXdXjXjX8.< w o.",
"k C z z x l P ,.C > j N c ).Y.`.rX(.mXc.  % r ` @.! d a +.g g #.m.$.H +.g W #.d Q $ %   j.nX).bX^.T.J.dXL.JXDXjXgX0XeXjXw.q 0 1 ",
"k XX#X@XoXn < 1 , S A B 3 W.S.Q.!.U._.x.X X O 5 5 9 # + # + + t t : - : - # 9 + 4 o @ . a._.R.R.l.b.%.3X<XDXdXgX0XjXdXkX+.H r.x ",
"n .XOX#X4.k n :.-.2.-.4.>.) Y.S.A.K.K.Q O 4 : 7 9 6 7 7 u u 8 t 9 9 t a t 6 u 7 7 7 4 o h Q.Q.x.k.l.F G G.jXdX0XdXjXdXG.q u.@X .",
"k OX#X{.z k 0..X}.|.2.2.t.-.A g Q ~ ~ ~ ! $.' 8.8.8.8.N.N.N.h.' 8.*.*.N.m.8.N.N.m.m.5.' ' Q ^ R G L u q W G.0XdXjX0XL. .q u.3.| ",
"n #X.XD = D .X}.{.{.{.{.2.XX1.b ; q w i Z ~ H ~ ) ) *.5.' ' ' ' *.#.#.#.] $.B.&X0.A y ( ;.b c V.2X2Xq q q #.dXjXL.L.) 2 q m q q ",
"z X.Y k , } .X.X{.{.{.{.2.<..XT C B./ 0 v v / ;.( N , _ ^ ( A 1 1 0 3.iXsX7X7XaXaX4Xo.b -XK 1 L >.v q o.o.; u $.W 8 2 3 q u K m ",
"K < < 1 D q.0.}.{.}.{..X{..Xq.D 0 I r.y.*X*X*X>X>X>XL 3 c 1 1 c l r.lXiXiXiX7X5X8X-X4X=.c 1 j J J < K 6.L w / ;X5.3 H 7.y.*X>X=X",
" .F +.2 C q.q.2.2.XX<.}.}.}.-.B c r.*X*X*X=X+X-X&X7.J 1 > N <X<X>.>.sXiX6X7XiX5X-X&X2XlXo.b b &X2X..v v < V cXFXAX( ( <X;X>X@X+X"
};
