/* XPM */
static char *result[] = {
/* columns rows colors chars-per-pixel */
"64 64 256 2 ",
"   c #1E0000",
".  c #270D01",
"X  c #380D05",
"o  c #2E1300",
"O  c #2C1700",
"+  c #331500",
"@  c #3B1501",
"#  c #341B01",
"$  c #3B1C02",
"%  c #37160C",
"&  c #3B1D0B",
"*  c #3B1A12",
"=  c #3C2202",
"-  c #392404",
";  c #3D230A",
":  c #3C2415",
">  c #4A0B06",
",  c #560B05",
"<  c #481707",
"1  c #421C01",
"2  c #581509",
"3  c #4B1A15",
"4  c #561916",
"5  c #6F1006",
"6  c #65170C",
"7  c #661A15",
"8  c #432303",
"9  c #4B2503",
"0  c #442B04",
"q  c #4B2B04",
"w  c #43250B",
"e  c #4B250A",
"r  c #442B0B",
"t  c #4B2C0C",
"y  c #542908",
"u  c #4A3207",
"i  c #4C330B",
"p  c #55370A",
"a  c #452B12",
"s  c #472817",
"d  c #4B2D13",
"f  c #572916",
"g  c #483315",
"h  c #4C3314",
"j  c #4C331B",
"k  c #533314",
"l  c #5B3716",
"z  c #543B14",
"x  c #53341B",
"c  c #553A1C",
"v  c #5B3C1C",
"b  c #772B0F",
"n  c #69261A",
"m  c #663A17",
"M  c #633C1C",
"N  c #511D29",
"B  c #5C2826",
"V  c #4F312A",
"C  c #573727",
"Z  c #553C23",
"A  c #5B3C23",
"S  c #672926",
"D  c #762A25",
"F  c #643B23",
"G  c #6A3E23",
"H  c #683929",
"J  c #783727",
"K  c #663B35",
"L  c #7A3A35",
"P  c #5C4408",
"I  c #5B4318",
"U  c #674D0D",
"Y  c #6A5107",
"T  c #6C510C",
"R  c #6A4E13",
"E  c #64441C",
"W  c #6A441C",
"Q  c #674A19",
"!  c #75481D",
"~  c #6C5213",
"^  c #6C521B",
"/  c #715517",
"(  c #5C4224",
")  c #584426",
"_  c #5C432B",
"`  c #5B4637",
"'  c #634424",
"]  c #6C4324",
"[  c #684A24",
"{  c #63452A",
"}  c #6C442B",
"|  c #644A2C",
" . c #6B4D2C",
".. c #774826",
"X. c #744B2C",
"o. c #7C4C2B",
"O. c #6C532A",
"+. c #76552A",
"@. c #654B32",
"#. c #6C4D34",
"$. c #654A39",
"%. c #744C32",
"&. c #7C4E33",
"*. c #754739",
"=. c #6B5234",
"-. c #665238",
";. c #6D533C",
":. c #735433",
">. c #785637",
",. c #755B3C",
"<. c #795C3C",
"1. c #7A633A",
"2. c #694E45",
"3. c #784945",
"4. c #6C5845",
"5. c #64534E",
"6. c #755747",
"7. c #745B43",
"8. c #7B5D43",
"9. c #6D5250",
"0. c #795C54",
"q. c #7C6245",
"w. c #79654A",
"e. c #7B6554",
"r. c #7E7158",
"t. c #8A1D0D",
"y. c #8B2D13",
"u. c #952B16",
"i. c #AC2C1A",
"p. c #853626",
"a. c #973725",
"s. c #B03427",
"d. c #CE3A29",
"f. c #9E4E16",
"g. c #874826",
"h. c #834D2B",
"j. c #99482B",
"k. c #84512C",
"l. c #995B2A",
"z. c #854B33",
"x. c #984938",
"c. c #835333",
"v. c #865936",
"b. c #98563A",
"n. c #B74A2A",
"m. c #A84737",
"M. c #AF4D30",
"N. c #A75639",
"B. c #83643C",
"V. c #8B653C",
"C. c #87693C",
"Z. c #97653A",
"A. c #A66B38",
"S. c #B26B35",
"D. c #D14E34",
"F. c #C65438",
"G. c #D76638",
"H. c #D16A38",
"J. c #E66839",
"K. c #864845",
"L. c #835947",
"P. c #985B49",
"I. c #905550",
"U. c #AC574D",
"Y. c #B85543",
"T. c #846443",
"R. c #8A6645",
"E. c #856944",
"W. c #8A6B44",
"Q. c #836549",
"!. c #856B4B",
"~. c #8B6C4B",
"^. c #956945",
"/. c #8A734C",
"(. c #977447",
"). c #93734C",
"_. c #9D7A4D",
"`. c #836A53",
"'. c #8B6C53",
"]. c #856858",
"[. c #946759",
"{. c #8D7352",
"}. c #88745A",
"|. c #937554",
" X c #9C7D54",
".X c #967758",
"XX c #9A7B5B",
"oX c #A96647",
"OX c #B76845",
"+X c #A77746",
"@X c #A37D4D",
"#X c #AB6A57",
"$X c #A27D52",
"%X c #A47A5A",
"&X c #B87250",
"*X c #8A7465",
"=X c #8E7069",
"-X c #967867",
";X c #967B74",
":X c #A67967",
">X c #B07267",
",X c #C85247",
"<X c #E95244",
"1X c #D16E4B",
"2X c #DA7A48",
"3X c #C87857",
"4X c #E66C46",
"5X c #EA764A",
"6X c #CC7A67",
"7X c #9F824F",
"8X c #9B8159",
"9X c #A5814D",
"0X c #A48254",
"qX c #A98353",
"wX c #A3835B",
"eX c #AA865B",
"rX c #BD8456",
"tX c #998469",
"yX c #998574",
"uX c #9D9379",
"iX c #A68767",
"pX c #B28C68",
"aX c #A78979",
"sX c #B58A78",
"dX c #A8927A",
"fX c #B89779",
"gX c #BAA27F",
"hX c #CC8557",
"jX c #EF8E55",
"kX c #C98667",
"lX c #D19072",
"zX c #E69771",
"xX c #D2A37F",
"cX c #F4A574",
"vX c #AC8C84",
"bX c #B28E83",
"nX c #AA9886",
"mX c #B69788",
"MX c #ADA289",
"NX c #B7A48A",
"BX c #ADA592",
"VX c #B7A393",
"CX c #BCB3A6",
"ZX c #C99885",
"AX c #D39486",
"SX c #C3A898",
"DX c #D3AD97",
"FX c #FCB88C",
"GX c #E3A295",
"HX c #F1A790",
"JX c #F0B4A5",
"KX c #FEC196",
"LX c #D5C2B2",
"PX c #F9CDB1",
"IX c #FCE6D5",
"UX c #FFEBD6",
/* pixels */
"_ /./.@.& C *.*.3.} *.} F { A @ w @.,.:.,.1.1.,.I O $ j ) # { <.v 1 /.eX_.0X0XV.W.R.Q.tX@.=.d 1 k @ h '.`.A j tXbX| h =.7.q.,.h ",
"- O.`.q.r < } } H } F F { { $ C r # 0 z p I I - ; ;.s _ aXa = - 8 1 E.8X8X7XV.B.V.E.R.-X=.@.c $ 8 $  .mXaX;.o j ;.e + 1 e t e + ",
"8 # ( c $ 1 1 M } %.' ] v e + x { $ = = O - - # { SX4.* ;.c = 0 w d !.tXC.1.C.C./.)./.uX~. .e %.^.' 8 j ; o f x k F H G f y e y ",
"l 8 $ $ e 8 @ $ 9 k e 1 $ $ q 1 = = q u p p q u # | C # $ = ; c { s _ 8X/./.~. X7Xw.-.` ,.h # k <.:.$ 8 e x *.>.&.v.z.o.v.c.o...",
"+.} p 9 9 e 9 = $ = = 8 9 8 0 i m ~ R Q ^ ^ R ^ Q q q 0 t 0 :.!.|.,.. O.tX!.w.;.Z V j V ` # w 8 t 8 t ' 8 y %.&.&.z.h.g.g.z.k.k.",
"v.&.X.E 9 9 i E E O.u = 0 p Q ^ U / R ~ R R ^ R ~ ~ ~ p 0 8 [ B.:.t = = 0 ; a : 2.=XvXnXMXuX( = = $ [ XX%.1 v.o.o.h.h.k.g.g.g.g.",
"o.k...c.] $ k v ( z O = u z O.R T Y T ~ R R ! ~ T T T / U p # = = + 8 t I z # : yXnXBXnXnX!.& t u i ; @.`.e.;X;Xz.h.k.h.g.g.k.k.",
"g.h.c.X.X.e # ; ; O 0 = p P P ~ T T T U R ~ U T T Y Y Y ~ ^ Q 8 8 i ' 1.!./.z - g _ -.q.a + 8 8 [ -X=X` ` *X8.[.&.h.k.o.k.h.h.h.",
"g.z.z.&.%.e w C -.4.4.;.E.W.B.Z.(.XX:XXXR ~ ~ T ~ Y Y ~ R R ^ ^ = =.~.~.Q.~.| = - # $ + y ! k.sX3.s * N ;.8 k &...&.o.k.c.o.&.k.",
"h...o.G %.s e.uXbX0.@.;.s > S 2 n S l B B.U U T U ~ ~ ~ ~ Q ^ ^ - g :.:.T.Q.<.8 ,.,.8 M V.Z.sX3.3 4 % ].v e e ] X.m m J W ] X...",
"m J G F } < =XZXnXdXj # - ~.d 4 4 2 2 X K +.p U ~ ~ ~ U Q R ^ O.i + ; + 1 y e e 7.'.v M R.sXH > N 4 X *X#.k 1 F ] M m G G G F ] ",
"F G m } 6.# $ ].dXaXC w 0 I '.< 4 4 3 N * 0.U p P ~ ~ P P ^ U u - 8 i m f y $ 8 $ ( 8 e :XL 4 4 , 4 > ].A e @ v >.X.} G M G M F ",
"F } } } 8 1 d + #.7.; $ 0 0 1.C N > S 3 3 s .Xp P P P U +.P u - + p V.Z.V.Z.p q | z | .X*.> > , 4 , , N e.a 1 A } F &.} f l H F ",
"6.%.A + + 8 9 ( 8 + = i u I q.N S N 4 4 > > S aX7X1.7Xr.I 0 - O = k k.Z.Z.Z.! ' iXgXZXv...4 n L I.K.3.3 9.r.C h Z k f l F %.%.} ",
"C 1 + $ i Q C.wX X[ = 8 0 0 L.N 4 D 6 D p.p.b.b.kX8XNXdXw.O - - ; 8 W c.k.o.p aX-Xm g.oXJ 2 4 4 S B % ].j - - # r x d k l A } 6.",
"% & 8  . XeX0X0X0XwX+.= 0 @.B S p.U.I.b D D x.OXoXb.k ZXMXz g - r = $ l 9 1 x SXsXDXlXI.p.n > 3 s X 6.( g I tX!.w ; w x f e s e ",
"w $ I iXqX_.9X@X0X@XwX[ e K L D L D 7 5 , 5 K.U.U.AXlXDXCXiX/.I 0 = 9 8 8 8 !.MXSXW.+.|.3.4 S 3.f X 3.# O .XSXaXt 8 8 e ; w ; # ",
"e 8 X.eX0X@X9X@X@X$X(.|.].B L 7 7 2 7 , p.K.7 7 P..XdXSXCXpX7XpX<.z i =.[ t | BX.XXX..W :X> < 3 3.* '.v r a h r ; 8 $ + + $ $ @.",
"= 1 [ wX$X@X@XqXqX).B.;X0.0.> K D 7 7 U.U.> , 2 %XpXfXNXCXfXgXNX/.' r c t 9 v SXVXCX..^ &.S X 3 X N 9.v a a $ r ~._.).W.+.$ v k ",
"$ 8 z $X0X0X0X$XC.B.tXiX~.k 6.3 S , D I.4 2 2 < fXpX_.NXDXNXDXDX!.!.8.sXfXiXQ.mXLXVXBXX..XB * 3 `.6.4.w.d j a 7.tX X%XwXiXC.8 $ ",
"u 0 I 8XwX0X_.W.C.XXE.~.~.@.g ]., S K.> 7 2 , 2 :XfXXXiXNXPXxXS.A.6X3X&X&XOX$XPXIXmXSX<.bX< * 0.k z ( 4.-.# - =.{.W.W. X_.wXB.$ ",
"r - ,.8X X(.C.B.C.E.~.!.!.| @._ S K.4 4 4 4 , J P.DX[.mXxXhXKX2XG.2X1X3X&XS.A.x.b.-XmXQ.#Xd X ].( ' h O O ; # j {.{.B.W.iXwXW.8 ",
"; - 1.8XW.E.C.C.B.B.W.tXQ.| _ a 3.N K 3.3 4 n D 2 #XJX>XZ.S.2XjXJ.1X6XzXcXzXhX3XN.P.PXP.H L   ].l 8 0 c j a ; ; j '.{.8.{.:X~.d ",
"r - I 8Xq.C.E./..X8XXXiXQ.| Z 4.K -XR.~.iXX x.n 2 6 m.U.1X4XH.J.J.5XzXPXPXKXS.2XhXA.J n > f s 4.# o :..X,.a _ ; d x ~.'.}.Q.|.A ",
"; - - /.dX|.8XXX}.q.@.,.{.c = e.{ X.v.<.W.K K < n , p.M.2X4X5XJ.hXcXPXUXUXlXg.l.f.kXN.D f S % 9.+ 8 v ] ' d e $ = t ,.O.| q.!.g ",
"r g O I =.@._ | Z Z A { | = _ ,.1 1 9 1 l e.[.JXJX2 y.m.1XJ.G.jX2XFXUXUXUXPXH.jX5 S.6XL @.; 0.5.>.B.<.V.R.W.=.8 = ; ( O.=.( z O ",
"0 - h O # w a * s : s ; - = }.z m 8 9 y 7XmXlXPX>Xp.p.n.H.J.n.J.2XFXPXUXUXhXf.cXb j.6XK.w.w ; ].dXpX%XiX$XwX X>.0 - 0 - - u i u ",
"i 0 = w.tX-X*X*XK * : & r E.pXwX0XZ.< y pX9XrXDXk.P.t.n.H.J.J.G.jXcXKXPXrXy H.jXy.p.ZXK *X$ w :.dX+X_.$X@X$XeXwX+.- = O.1.1.C.1.",
"o w # q.dXmXVXSXCX` & ; ( XXwX8X8X_.9 o.A.l.OX^.g.j.D.G.4XD.G.D.hXjXFXFXFXb f.H.b rX^.[.; # _ |.(.B.C.Z.^.(.(.$X Xi r [ O.O.O.0 ",
"C Z j % s 6.*Xe.$.j C ; g |.~.|.E./.8 o.A.f.kX..M.D.D.5X4XG.5XD.D.2XzXFXFXcXf.S.&XkXz.mXw w {.8X@XZ.qX9X$X$X@X%X).i = $ - - 0 0 ",
"mXvXaXvX;.O & - O e.SX!.# { XX'.|.{.$ f 9XA.xXg.n.D.D.J.4XG.5XG.n.H.3XcXcXFXcXkXrXP.J vX- h /. X7XZ.9X9X$XeX$X.XT.k d w F ].aXfX",
"vXvXbXmXaXg ; r ; z 8XiX; 1 8.#._ g # v R ! fXg.n.J.J.D.G.1X1XF.M.M.j.S.3X&X&XoXb.z.S :X; w _ 8X8X_._.7X(.(.^.^.v + #.-XmXmXmXaX",
"vXbXbXvXaX6.# w r 0 u r = = w 8 # = 8 $ @ 9 1.b.,X5XJ.G.H.u.F.,XHXzX1XlX3X+X@X^.sXsXbXtXq.; j ;.{.).T.B.C.q./.<.8 '.mXbXsXbXsXdX",
"mXvXvX-X=X=Xs ;./.!.O.= 0 ; 8 = 8 9 y t e $ r &XH.5XJ.D.u.5 y.t.a.n.t.u.zXN.zXm lXmX_ | | a O Z ,.!.{.{.!.E.1.$ v mXdXsXsXbXbXbX",
"aX=X=X-XvX2.% 8.#.c r 8 u p 0 z I ^ W M ' ' v AXY.,XM.u.u.M.t.u.s.s.D.i.,Xs.s.>X[.vX{ F r w d $ r v 1.,.( t r x & ].bXbXvXvXvXvX",
"=X-X=X:X*XX @ f x $ # i :.E 0 z E m W [ W W ..ZXx.Y.u.t.y.M.,X,XD.d.,X,Xd.<Xs.,XK.4.( 7.x $ l 8 $ @ @ + @ = #.-XA & ;XvXvXvXyX=X",
";X=XvX:Xs 1 >.|.%XwX:.8 t = O E [ m Q ..W m ..GXP.a.a.U.m.m.m.M.u.i.i.i.,X<Xd.d.p.vXX @ 1 e y l G F } l M e @ F C o C =X;X=X;X=X",
";X;X=X3.l  XpX$X$XwXeX(.q $ = z W W m E R W V.sXa.p.U.kXP.m.Y.HX6Xt., ,XD.i.<Xd.m.AXC B } >.z.&.&.&.c.&.o.X.M @ @ C * K ;XyX;X;X",
"=X0.2.3 ~.eX@X0XqX_.$X_.R.d = r W W U W W +.ZXx.a.b S #XkX3XN.N.6XK.lXHXi.i.d.d.,X6XAXI.F &.&.c.v...h.h.c.c...X.< L.L.V 0.=Xr.=X",
"9.V V *  X0X_.0X_.Z.V.Q.~.c = 8 E l p m U >.&Xj.y.b b.v.OX6XlXS.b &XHXoXzX<Xd.d.s.u.P.I.:X:X&.&.h.g.h.h.g.o.k.c.p F '.w j 9.9.9.",
"* * -X7._.7X_.0X@XB.V.W.~.A 8 = i l i p l sXx.N.N.a.b.P.j.OXOX&X3X..b p.a.p.d.<Xu.m.6Xm.H 6.&.&.z.h.h.h.h.h.c.c.y < d $ & s C a ",
": 5.NX<. X7XqX_.W.B.(.v..XA t $ k ] l i >.%.#XN.p.x.p.l.oXOXH.N.N.lX#XS > 7 ,Xs.m.6X,XGXGXs L.G ] ] m ....] X.} e 1 a w A Q.~.L.",
"Z $ x v 7X7X(.C.W.B.B.E.|.A <.k d A c ' { 0.$.H #Xf > n n g.1XM.j.>XZX-XsX6X,X,Xs.PX,X>XiX2.*X} } X.%.} X.%.} F s }.!.a d <.%.F ",
"8 q 8 $ E W./.1.E.~.|.!.A $ F w ; g h h ( E <.=.| L.L S n x.m.N.j.>XqX$X>XbXm.,Xt.GX6X>Xw.2.| 8 d e f F A >.{ w d ;.,.k o X 1 @ ",
"+X+Xk.9 1 k ;.-XtX`.4.( $ = $ # # & a j d d c 8 . -XB 3.K.).U.&XU.:XeX$XqXpXU.,X,XJXU.:XaX9.q 0 + ; $ & $ w & + ; ; = 8 l o.Z.Z.",
"S.A.Z.m ] Q.+ F _ j ; Z ,./.T.g w ; # : # $ $ o E dXK 3.iXeX[.K.p.[.wX_.(.(.lXm.,XJX>X-X*X=XC.1.( # _ A & #.#.w Z E.>.y o.A.S.S.",
"S.l.g.Z.9 G d ; g - # ;.q.c d + _ @.# . o : & e .X0.K K.wXpXB bXsX{ XXC.V.W.%XfXU.K.I.=X,.O.+.+.{ o d w j [.'.A + 0 u ~ A.+XS.S.",
"l.l.l.oXy < k |.8Xq.g - g q.`.yXyXyXdX;X2.j A ( iXN 3.pX_.iXC  X[.-X).E.V.%XXX;.9.I.=XV t 0 = $ + a H #.x $ d 1 k v 0 k.+XA.2XS.",
"A.A.A.A.m G c.:X XeX).0 ( nXVXVXMXMXBX2.3.*.6.'.* C iXQ.tX$.-X-Xw.B.C.E.XX.X7.A w & 0 0 h - % 6.aXaXZXbXdXA & ; A  .1 W +XZ.A.l.",
"Z.Z.v.E y y #.XXwX$XiXO.. r.nXdXnXnXyXuX3.*.H K [.aXB.~.tX/.W.8XB.B.).8X-XQ.@.d $ >.).O.0 # a -XaXvXvX;X` O w C h + 1 l ^.b.Z.Z.",
"m l q $ k d r w.{.'.{.q.O -.yX*XyXr.-.4.}.$.V 8.#.~.-X~.q.B.E.C.).iXtX).E.| h # X.wX0XeX(.E $ $ j C C : O -.tXMXdX;.; & f m m m ",
"$ + + I {.,.$ | Q.w.7._ # j r.4.w.6.Z - j 2.].7.d ( 7.XX.X/.8XtXXX~.1.=.,.( # x |.0X@X9XqX@XW 9 A j # s r.MXBXnXnXVX}.; $ 1 1 < ",
":. .| g - 0 # r ) Z _ 8 # $ - h g g - t - - O.) a _ $.=.tXtX/.q.-.@.@.@.| ; # 8. XiX+X@X9X@X^.k { w.- }.BXdXMXnXMXMXNX`.- r +.1.",
"R.~.{.( - O.O.r # - ; = z l = | P - p I P - 1.uXq.a =.$.q.:.| ( _ @._ Z a ; ; { .X XqXqX(.C.R.>.# g O.tXgXBXuXMXMXuXyXtXc z ,.C.",
"V.W.~.q.g { z 8 $ ; k l m [ 8 O P U ^ ~ O.O.u - = # r @.,. ._ ' A c h i 8 w 1 k Q.8X X$XC.C.~.,.= r _ dXgXnXMXBXnXyX*XyX-.# O.1.",
"+.+.M 0 # $ 8 c k 8 i q l p + p ^ T ~ ~ T O.^ u r ,.=.$ h A k d k w 9 i E [ 8 k [ {. X XB.E.!.w.i r u tXtXMXnXnXyX*X;XyX$.# r A ",
"< y 9 q 8 8 v  .t # & a w O 0 ^ P U P P P ^ I ) ,.*X8.C *.6.2.].*X$.e.e.w.q.7.@.4.*XtXyXtXyXyXw.` w.=.tXe.BXnXyX;Xr.yXyX` - - O ",
"1 <.Z.V.B.q # $ 1 d f a & Z =.w.1.1.1.w.r.r.4.5.` 2.2.0.e.Q.;.8.e.$.7.w.w.w.w.$.e.}.}.r.r.}.e.w.,./.c }.r.nX*XtXr.vXyXuX) ) :.- ",
"y c.Z.Z.o.1 y } ] o.} X.{ h 8 z 1.w.w.w.4.-.-.` *Xw.].*X*X=X=X$.9.2.4.4.;.@.` _ C 7._ _ _ _ -.c # r ; g w.yXyXtXvXyX;X5.- 1.C.U ",
"y v.Z.k.2 1 %.c.h.h.o.o.>.} q $ - O - # g g - - XX$.#.L.Q.L.8.F mX].e.w.I e d 8 $ d _ ( ) _ h ; j z : - V w.*X*X;Xr.r.Z - 1.O.P ",
"y Z.v.y X y z.h.g.g.k.h.o.>.o.e # # # . . # o # ; + x #.%.F } d Q.g - q >.9XeX X>.e o d ' 8 $ E.{.{.- ; : ) yXyXe.0.C & - : - - ",
"< ! W < < G z.k.k.! g.g.g...&.M d 7.Z # w r { :.( d @ F v { f # # = O.7XqX_._.qXeXXX' q ~.v $ k | u # ( Z o : ` V : % * : - I I ",
"c # $ $ x &.o.h.k.k.g.c.h.h.&.l = A O.,.!.E.W.~.~.~.x ; w & & w 8 :.pX9X9XqX9X$X X~..X{ 0 $ 8 k k # c O.z ; Z w.` # j #.,.E.w./.",
"I g _ # s %.&.h.o.k...h.h.z.} e 8 :.E.!.C.W.B.T.q.:.x # + a Q.`.'  .qX9X+X+XqX_.W.T.~.iX( e q L.|.( r r $ d dXmXnX) A '.E.W.B.C."
};
