/* XPM */
static char *result[] = {
/* columns rows colors chars-per-pixel */
"120 60 10 1 ",
"  c #C4B69C",
". c black",
"X c #C0B198",
"o c #BBAB94",
"O c #B5A490",
"+ c #CEBEA4",
"@ c #AE9D8A",
"# c #8A786C",
"$ c #A69483",
"% c #998878",
/* pixels */
"..............................#####$$$$$#$O+++ OOO#$OOO@O++oO%@O@OOO++X@@O%%@@@+++@#%$$%##..............................",
"..............................######$$@@#%@o+++O@O%%oOOOO +oO%@OOOOo++OOO@#$@@ + +##$$%###..............................",
"..............................%######@$@%#@@ ++XOO@%oOOOO +XO$@oOOOX++OOO$%O@o+++$#$@$####..............................",
"..............................$$#####%O@O%%Oo++XOOo$OoooO +Xo@ooooOX+XOOo$@OOX++O#$@$#####..............................",
"..............................$%$%####%O@O%OO++ Ooo@@XoooX+Xo@ooooo +oOoO$OOO++ %$@@%##%##..............................",
"..............................X@$@%###%@OO$$Oo+ oOooOooooX+XoOooooo++oOoO@oO+++@$O@%#%#%%$..............................",
"..............................++o@@$##%%OOO%OOX+oOoooooooX+XoooXooo+ OooOoOo++o@@O%#%%$$@$..............................",
"..............................@ + @@$##$$Oo@OOo+XoooXoooXX+ oXXXooX+XoooooO +oOOO%#$%@@@%#..............................",
"..............................##@++OO@##@OooOoo+ oXXXXXXXX+ XXXXXX +XXooooX+XOOo%#@@O@@%#%..............................",
"..............................%%#%O+ oO%%ooooooX XXXXXXXXX+ XXXXXX +XXXXXX+ OoX$%OOO@@$$@@..............................",
"..............................@@O@$$X XO%%XoooXXXXXXXXXXXX  XX XXX  XXoXo  ooo@$oOOOO@@@@$..............................",
"..............................@@@Oo o++ o$$oooXXXoXXX XX X +X X XX  XXXXX oooOOooOOOO@@@@@..............................",
"..............................@@@@@OX +++X@@ooXXXXXXXXXX    X   XX XXXXX XooooooOOOOO@@@OX..............................",
"..............................@@@OOOOOX ++ ooXXXXXX                  XXX XXooXoooooOOOo ++..............................",
"..............................@@O@OOooooo+++ X      X                   XXXXXXXoooOoX ++++..............................",
"..............................@O@OOoOooooo  + X X X                  X X  XXXXXooXX+++  oO..............................",
"..............................@OOOOOoooooXXoX++ X                       X XXXXXo+++ XoOO@@..............................",
"..............................#%%@@OoooooXXXXX   X                     X XXXX +  XooOOOOO@..............................",
"..............................@@$@$OooooXXXXX                                  ooooooooOO@..............................",
"..............................OOoooooXoXXX X  X                           X XXXXXoooO@$%%#..............................",
"..............................OOOoOoooXoXXX X                              X  XXoXoO@$$$$$..............................",
"..............................@OOOoOoXoXX XX                                XXXXXoXoOoooOO..............................",
"..............................XXooOoooooXXX X                              X  XXXXoooOOOoo..............................",
"..............................+++++++                                     X  X XXooXo X+++..............................",
"..............................      +++++++                                 X    +++++++++..............................",
"..............................OOOoOooXXXXX                                   +++++++ X XXo..............................",
"..............................OOoOooXoXXX                                      XXoooooOOOO..............................",
"..............................OooooXoXXXXX                                    XXXXXXoooOoO..............................",
"..............................%$$$@@oooXX  X                                   XXXXoO@@$$%..............................",
"..............................###%%$@ooX                                      X XXXXooooOO..............................",
"..............................@OOooXXXXX X                                       X XXooOOO..............................",
"..............................OooOooXXXXX                                     XoOO@@$$%%##..............................",
"..............................OOOoOooXXXXX X                                  XXooO@$$%%%%..............................",
"..............................OOoOooXXoXX                                    X XXXXXoXooOO..............................",
"..............................OOOoooXX                                          XXXooOoooO..............................",
"..............................oo X ++++                                      XXXXXXXo@$@@O..............................",
"..............................++++++ XoXX X                                  + XXoXXooO@##..............................",
"..............................+++ ooooXoXXX X                                 ++ XoooOooO@..............................",
"..............................+ooOoOoXoXXX X  X                            X XX ++++ooOOOO..............................",
"..............................OOOO$@ooXXXX  X                               X XXo ++++ oo@..............................",
"..............................@$%$@ooooXXXX                                XXXXXXoX +++++X..............................",
"..............................#%@oOOooooXXXXX                             X XXXXooooO ++++..............................",
"..............................@OOOOOooooXXXXXXX                          XXXXXXoooooOOXX++..............................",
"..............................@OOOOOooooooXXXXX                      X  X XXXXXoooooOO@OO+..............................",
"..............................@O@OOoOoooXXXXXX    X                    X XXXX XXooooOOOO@@..............................",
"..............................@@OOOOooOooXXoX+  X@o                   X XXXXXXX+ oooOoOO@@..............................",
"..............................@@@OOOO$$Oooo +  O$o   X                XXXXXooXoo++oO@$OOO@..............................",
"..............................@@O@$%%@OoOo +XX$%XXXX XX  X+ X  X XX X+ XXXXoooOoO ++o%%%%@..............................",
"..............................@@%##$OOOOo++X@%$XXoXXXXXX X  X X XXXXXX XXXoooo@@oOX++ O$##..............................",
"..............................###$@OOOo ++o%#@XXXXXX XXXX + X  XXX XXX+XXoXoooo%$oOO ++ @#..............................",
"..............................#%@@@@Oo++ O##OXoXoXX XXXX  +XXXXXXXXXXo +oXoooooO#$oO@X+++X..............................",
"..............................$@@@@OX++o$#%OOooXoo +XXXXX +XXXXXXXXXXoX+ oooooOo@#$O@$o+ +..............................",
"..............................$$$$o ++$##%$@OOoooX+Xooooo +ooXXXooooXoo+ oOOOOOOO%#$O@$O++..............................",
"..............................$$@X++X%###$@OOOooo++oooooX+ oOoXoooooooOX+oOO$OOO@$%#$@@$@ ..............................",
"..............................$@ ++O####$OOO@OoOX+ oOoooo+ o$oXoooooooOo++OO@@OO@@$##$@$$$..............................",
"..............................O++X%####$@OO$$OOo++oo@ooo + o$oooooooOOoO++oOO%@@@@$%##%$$$..............................",
"..............................++@#####$@@@@#@OO+++X@$ooo + O%Ooooooo@@OOX+ @O%#O@@@%###%$%..............................",
"..............................X%#####$@@@@#$O@ ++ O$%OoO +X@%@OoOOOo@$O@o++X@O#%@$@$####%$..............................",
"..............................######$$$@@#%O@o+++X@#%oOO++o@%@OOOOOO@%O@@ ++@@%#$@$$$####%..............................",
"..............................#####$$$$@##@@@ +++o%#$OOo++o@#$@OOOOOO%@O@o++o@$#%$$$$#####.............................."
};
