/* XPM */
static char *result[] = {
/* columns rows colors chars-per-pixel */
"64 64 173 2 ",
"   c #D1BB96",
".  c #CFB795",
"X  c #CEB693",
"o  c #D0B896",
"O  c #D2BB99",
"+  c #DFCDAA",
"@  c #D9C6A3",
"#  c #CDB590",
"$  c #D9C19F",
"%  c #D7C19E",
"&  c #D9C8A4",
"*  c #D5C29F",
"=  c #D1BA97",
"-  c #D6BF9B",
";  c #D6BD9B",
":  c #D3BD9A",
">  c #D4BE9A",
",  c #D3C09C",
"<  c #CFB993",
"1  c #D3BC97",
"2  c #CDB594",
"3  c #DDCBA8",
"4  c #DBC9A6",
"5  c #D9C29E",
"6  c #B89B72",
"7  c #CAB08A",
"8  c #D6BE9C",
"9  c #D1BC97",
"0  c #CBB28E",
"q  c #D0BA95",
"w  c #DCC5A2",
"e  c #A78A63",
"r  c #B5996E",
"t  c #D1B995",
"y  c #DAC3A0",
"u  c #D7C5A2",
"i  c #C5AC85",
"p  c #856C48",
"a  c #D7BFA0",
"s  c #C7AE86",
"d  c #BA9E74",
"f  c #D6C4A0",
"g  c #E3CEAC",
"h  c #B4976C",
"j  c #BBA079",
"k  c #DECBAC",
"l  c #947F5A",
"z  c #6D633B",
"x  c #645E34",
"c  c #937A56",
"v  c #B2946B",
"b  c #E0CAA7",
"n  c #AE9670",
"m  c #8C724D",
"M  c #A69672",
"N  c #B4A37F",
"B  c #9D8F6A",
"V  c #82714C",
"C  c #BEAC8B",
"Z  c #C8B48F",
"A  c #E3D1AE",
"S  c #473F13",
"D  c #C3A983",
"F  c #92835D",
"G  c #A2865F",
"H  c #BAA17F",
"J  c #DEC7A5",
"K  c #A58F68",
"L  c #9AA304",
"P  c #615129",
"I  c #998B67",
"U  c #4B4518",
"Y  c #C8B192",
"T  c #A3926F",
"R  c #998764",
"E  c #BFA37A",
"W  c #858A0A",
"Q  c #877D57",
"!  c #544D22",
"~  c #889008",
"^  c #979F08",
"/  c #79603C",
"(  c #B59874",
")  c #7D8507",
"_  c #8E9707",
"`  c #696E0B",
"'  c #AE9D79",
"]  c #B7A683",
"[  c #595325",
"{  c #AE916C",
"}  c #796741",
"|  c #756C42",
" . c #847651",
".. c #60592D",
"X. c #CBB893",
"o. c #BEA681",
"O. c #53461B",
"+. c #7A6E48",
"@. c #363607",
"#. c #C1B18B",
"$. c #3D3B0B",
"%. c #685730",
"&. c #B8A885",
"*. c #908542",
"=. c #D3BBA1",
"-. c #C4AE8F",
";. c #A08B64",
":. c #2B2F00",
">. c #7E744C",
",. c #93764F",
"<. c #846743",
"1. c #B7AA6D",
"2. c #B0A07B",
"3. c #83821D",
"4. c #715B36",
"5. c #B69B7A",
"6. c #6F673E",
"7. c #9C825A",
"8. c #AD9977",
"9. c #929C03",
"0. c #A8A731",
"q. c #CDBE9B",
"w. c #D4C393",
"e. c #A49D4F",
"r. c #BDAA84",
"t. c #9B845F",
"y. c #AB8F69",
"u. c #D9C1A6",
"i. c #968A4A",
"p. c #BFB276",
"a. c #757A07",
"s. c #8A7B3F",
"d. c #DDC5A9",
"f. c #8A7A53",
"g. c #646315",
"h. c #C6B978",
"j. c #737412",
"k. c #7E643C",
"l. c #BCB35C",
"z. c #ADA84D",
"x. c #AB9F67",
"c. c #716B26",
"v. c #7A7A1C",
"b. c #999041",
"n. c #93912B",
"m. c #8A8154",
"M. c #999828",
"N. c #AEA081",
"B. c #A89172",
"V. c #D2B89B",
"C. c #8A8923",
"Z. c #878331",
"A. c #9FA904",
"S. c #4D5109",
"D. c #B3A36F",
"F. c #A29355",
"G. c #9EA121",
"H. c #AB9B74",
"J. c #A2A139",
"K. c #E6D4B1",
"L. c #CCB79D",
"P. c #847339",
"I. c #C1A880",
"U. c #B6B53B",
"Y. c #7E7838",
"T. c #A8B009",
"R. c #C6B792",
"E. c #B0BB00",
"W. c #7F7C2B",
"Q. c #C9BA87",
"!. c #5C5A15",
"~. c #9D973B",
"^. c #A09565",
/* pixels */
"U / h r < 9 q = ,.X.3 , . X * R.f.H ;.7.G { o.7 -.H { m | s 0 2 O t # 8 F R A u % r.k.X 3 f t . .   g H.I : . % b g g g g g g N ",
"S / r v E -   = ,.Z 3 * . . y #.F g 4 @ 4 3 3 3 4 - 5 N } i 0 # . X # 8 T T A 9 = -.} 5.3 u , . o 2 g I @.z m l l >. .>.| z ..U ",
"S <.r h r O O q m Y + u t 2 5 &.;.+ u @ & @ @ , . 2 ; ' +.0 7 X X X # t ' M & # ; &.%.( A 4 3 @ : = h.*.p e G G l O.+.p O.P p ..",
"S ,.6 v E - 9 R.p Z 3 @ > . % 2.M + @ & * : = . o . 1 ' +.t s # X # 7 # N M 8 # % n [ ] X.X.9 X.Y r.L _ i.j r # # m B I.{ D w +.",
"} { r d X 9 > C p 9 4 @ * < y M B.4 * - < . o . t t a n Z.# s 0 # s i 7 ] R d.u.k n j.@.$.! x +.6.j.A.L v.{ d X t 8.I s o.9 1 6.",
"R r d 7 < < ; 1.s.4 @ @ * o 1 b.b.  t o X o X X 9 , Y b._ i s i s s s - #.Z.l.l.U.0.a.z B N.C L.C ~ W ) Z.v j . . j 8.J > : g I ",
"t.d i O % y g x.*.y + + % u.p.A.~ D.w : : , f @ + Q.n.P.[ * w % * @ + , x S.Y.C.W Z.i.n o : = X 2 ; ' | 6 h j > # I.I ' #.] F x ",
"R o * 2 8.K ] 0.9.c.V ;.B.H.0.T.^ W.] -.X.q.q.q.q.p.L c.S Q N.N.] N T x :.P ( ( ( 5.( s y 8 - $ % J s t.6 h # t 0 7 z V -.M m ..",
"+.l  .4.! P W.G.M.Z.| z } | j.` W Y.7.G G n n K V ) A.j.5., -.0 0 0 6 0 Q P 6 v r r 7 5 y $ $ $ $ w I.R h E - t X 7  .K $ > 7 ;.",
"f.t.y.D f./ 0 : 2 ; w % E 5 x ! K 6 j E i - o t 7 b.v.%.. 4 - t t = * K.' P 6 i 0 =   t t a y % - w H.R d 5 y = # # f.n - X * ] ",
"2.A 3 g N P.& f O . X o f A T 8.O 7 : y y $ : t = 0 s.!.n 3 u , 2 X Z b H.U ( 1 t . 0 X # D - b b 5 +.N.1 $ $ ; # 0 c 2.y # u #.",
"N 3 * : 1.C.= 3 u o . X O & z.e.&.#.9 , y % % > 8 p.A.W ;.K.+ A 3 % : b I :./ G n v y.e e l G K T x U C o 8 $ 5 O 0 R H 3 # a #.",
"r.3 X.O N j.H 3 u * o < = Q.T._ P p m p ..z 6.6...@.` a. .T M 8.8.n 8.T ..S U @.U U O.6.%.f.&.r.] T z -.t ; 5 % w A B 8.+ X > #.",
"&.% # 8 D.W r.A 4 k d.=.=.Q.^ *.v v 6 e O.Q D { e p k.k.4./ <.<.m t.K B.3.M.5.7.m k.m d T ( g @ $ $ b.#.o 8 5 $ % k T K A . ; #.",
"2.O # a K L 1.p.h.p.p.l.l.U.C.{ 6 6 X #  . .w D j r r v d i # t ; - 5 V.C.G.: 1 0 d h 7 B 5.> 2 . < M.Z 2 8 5 $ - d.U.L Q.* O &.",
"B b d.& ~.9.A.L ^ n.~.G.E.E.*.5.v E . o 8.x -.: # D j i < 9 q o o o 9 -.3.J.=.O 9 0 o.1 F -.O X , & J.p.2 - % 5 5 k U.9.1.@ : 2.",
"! m.l.0.9.m.i.x.&.Y J.] z.E.n.( h E = X H z : J - y % 5 % - 5 w 5 > % w.M.G.#.Z =.a y J I -.t , & * G.x.=.u.d.d.u.M ~ ^.A * a ' ",
"U P.b.F.y.( 5.: ; t 1.Z d.e.s.5.v D ; 0 D ..6.F B M N 2.' 2.B Q Q f.p s.~ ^ 9.^ J.1.^.i.Y.o @ + k a G.A.U.U.l.z.T.T.` R b % y Q ",
"k.d ( ( h r 1 y - $ d.$ w H F r 6 = X # i x P n Z &.C N ;.G l ! m <.e ;.c._ L _ _ ) 3.e.I 5.0 d i.0.W ) a.` S.W.M.E.W %.+. .x :.",
"} r h 6 E q % - $ % % % J H i.F.7 $ t # 7 6./ 7 8 = = - % v < m.. 9 + k b.^ _ x.o.o.a w.J.[ P c.C.v.S :.S.) *.z.=.0._ y.e 7.4.S ",
"4.j # . : o o o 8 w % y h.F B.i & $ t # 0 | / y = X o o 8 * 3 I , 3 u a ~.9.J.a - - O z.A.j.c q.C ] ;.l f.j.1 5 w < D.. # t 7 p ",
"P ( t . 0 7 7 7 j q w J 1.c.C > % $ 8 0 s +.} b f o . o o f 3 ' : 4 * O e.L ^ s =   Z n.~ g.;.- o O 1 6 K _ U.9 $ 5 $ = 1 . 0 ,.",
"@.P V l 7.l c m m F R Q v.9.x.; - $ 5 : 1 f.<.@ 4 % . . 2 , 4 N * & t ; e.~ W 0.V.  < $ M S H : X 2 , E F.~ _ h.d.% w q j 6 6 m ",
"[ ! $.U S O.V z T q.q.Z e.v.&.O 8 5 % w A l /   4 @ = . o O 4 N * > # $ F g.P.W 1.8 q > #.! i * X . 9 , q.i.1.# t 8 t 6 h h d } ",
"Q 2 n G ,.G D T j 3 : : V.R L.X - $ $ - b R 4.i 3 @ > X o t & N < O 2 w Q $.,.6 Z = q 1 X.x Z f X = q @ @ m.Y =.L.L.H n n ( K ! ",
"f.$ O X d r # F i O 2 = 9 I 2 # - % % - d.J.c.H + u @ O o t , 8.. o X w >.$.m j       1 q +.X.3 t X . * & ~ g.F.e.e.n.c.U ! U @.",
"I $ . q 0 7 O F X o o f @ >.-.V.u.d.d.d.q.9.c.H 3 f & * t q q F Z o , 1 z S.M.v # :   q > l Z 3 : o # % , 3.) ) a.c.k.m p <.p [ ",
"N   5 w w y o F # o u 4 3 ..x.w.h.l.z.U.0.9.` Z A 4 4 @   > w 6.X.b k d.V ~ ^ { E >   q - l #.k , X . > , F #.' n o.  @ 4 9 D f.",
"$.$.! | >.+.>. .% + + % ~.) ) ~ W ^ _ ~ a.S.[ ' ] Z 9 X . C m.@. .2.p.l.0.T.3.y.h s 8 < > c C + % o X , q.I + g + 3 4 & u = w T ",
"z +.m.| V 2.* B ;.n c k...@.:.:.@.g.b.i.f.p p } 4.%.[ [ [ $.$.4.4.%.g.` W E.3.{ r 6 9   - c o.+ f . o - X.B 4 u u @ & f t 2 ; I ",
"c H b : O : b Q @.z >.| x U U S :.8.g b - E D E d r l ! @.>.c p p p / ! ` T.P.v h r q 9 > ,.o.+ @ O X > #.M + @ & u , o o o O B ",
"z 5.9 q 9 X J | S ( J = O j { l x 5 % % 5 = o . o = ; 7.[ < o.G G e G c ^ L P.6 v I.8 q q V I.+ @ , o - &.T 3 @ * . X o o . ; I ",
"O.( : .   < J  .U j = 2 o - v d K y % $ $ % 8 1 < 0 7 7.z X j e e e y.*.9.L K 6 E X   1 Z <.0 3 @ f < % ' K y > = o o X o O % >.",
"S e   <   < w B O.# : . . > # R.2.y - % % 5 y D h h 6 c >.= D y.e e y.*._ ^ F.j 7 q > - r.+., 4 u u q % M i.u.< . X X X   , D } ",
"S c 7 q q q - &.P , - X =   3 q.' y # . = > I.r 6 6 E p Q ; # H e y.e c _ L *.X 8 O L.g N.V b @ k u.O u.F._ e.=.8 a u.d.g o { V ",
"O.,.D o = q - C } * u o X o f * x 2.= L.Y C K ;.R ;.t.S Q ; 7 > { 7.7.H ~.L ~ M.D.;.*.e.Y.z n.0.p.l.l.z.L E.L 1.1.z.z.h.p.z.F.6.",
"O.,.E =     1 # m > 4 O . 2 * f S @...6.} z P O.S S g.` W.-.7 : I.G s 9 C.L T.~ ) W W a.` ! S.9.E.9.W W.W.3.3.3.a.a.j.g.` ` ` S.",
"O.p 6 0 : =   = c X.4 > X X * R.>.B.c m c t.n H H ( e ~.W H # # = o =.D.) ` ` i.D.G K ;.K j p ) W P.Y =.2 Z Y 2 Y Y Y j { 5.Y x ",
"O.k.h d ; = 9 t m Z 3 , . . y #.F A 4 @ & 3 + + 3 % =.h.~ r X # o # V.x.~ v.Y w b ; ; 1 8 - o.g.g.Y + * : = t o =   : % @ & K.B ",
"S / h v i - =   s.Y + f o 2 % C B b u & & @ u % X.# V.p.~ D.0 # X # O D.~ ^ X.w % % ; 1 0 D 6 / / j 3 @ & u > . X X . X , u + H.",
"S k.r h 6 : 1 < s.Y 3 @ : . u.l.0.k @ & f , 9 . o o V.1.C.0 7 # # # 0 I.^ ^ q w % % y I.v v h / <.p 9 @ f u u > . < . X . 9 4 I ",
"S p 6 v d > O X.s.X.4 @ * q e.L 0.u.u , o X . . t o a D.n.2 s # # s 0 e.^ n.O X o 8 s r d 6 h O./ G 4 K.+ g A K.A w % % y y J 6.",
"P G 6 h 7 > : #.W.f & @ * < x._ 0.V.t < X o . X   , X *.*.V.I.i i i s M.^ Y.a a =.L.8.l l ;.| :.U V Q m.B B I R I B T M F >.x @.",
"l ( r D < < - &.3.w.+ + f - d.G.0.a 1 O O > , * 4 q v c z A b w 5 b q._ A.S...>.+.z x | >.H G p k.p m t.T @.$.Q ^.&.C #.] N F @.",
"R r E # > 5 y 1.~ s.R 8.H.N +.` G.] Z Q.Q., & 4 @ q.r.| :.z B T N.N.F.L L g. .T F l C g ' r.7 d i ; a d.L.S.b.X A g 3 @ % 5 - ! ",
"t.7 % w Y C u.z.9.!.[ j.3.P :.$.L ~ v.3.c.6.z ......U :.! %.P 4./ / a.A.j.+.5.J a ; q y B r.J < h.h.h.p.l.n.3.5.* O . . . . ; | ",
"l N.M Q Z.n.*._ L ^ L _ i.h c !.a.Y.#.] ] C ' t.7.y.l :.F . n ( i - x.C.*.V B.9 q   X w F [ I H.Z.Z.v.~ ) g.s.5 = 2 o o t , ; | ",
"F f.$.@.g.` v.W j.n.M.M.F.h 5.c.) ;.$ - o t > > 6 e # [ m.K.3 + 3 3 k = y } t.> .   < w I :.t.O Y -.B.t.c @.' 8 . . . o * 4 @ 6.",
"' d m k.p m n | } i V.2 ( r 6 x ) x.O X . o # f 7 y.b z R A f u @ @ q . : z ,.t t   q % ] U n ; . t 5 r E x ' ; . o , u @ @ u ..",
"N E r h j 0 b Q p i . 9 d v ( Y.W 2.@ 2 o o o   * , K. .T A u & f O o o = } <.i t t   1 R.[ H - X X , i 9 x 2.O # * @ @ & 3 9 ! ",
"' 0 { j q . -  .,.s o : O d { i._ x.+ X.. t q = , & A B M A @ O . . o o O } <.E o =   : < x -.f X t = u + x r.y & + + @ 9 u O U ",
"B - o.< 9 o - Q c s . 8 w - H C.a.r.+ * = X . o t f g 2.M 4 : o o . o O X 4.<.d < 9     9 V # 4 o X o , + x l j i D n l m m f.$.",
"M - 9   q q % M 7.I.- $ % ; 8 T P D 3 & , . t # . * g N 8.- X o t X t 5 o.%./ h s > q q - t.Z + 9 . 2 - + [ O.%.P %.%.P O.S $.$.",
"2.b - > - 9 , N n b 5 $ 5 O t ] 4.6 + u u   . t X 9 A 2.R d.9 X = : & s e %.4.v 6 q O t - l #.+ , X . > f >.l V V ,.7.y.B.e 7.} ",
"[ Q M C ] N.C  .o.J - $ 5 = o C / G 3 u & : . o o   + &.v.0.1.b 4 k k u.d v.4.v v E - t > c r.+ * . . - q.R + f > y 4 + g u 1 N ",
"V I C 8.n Z g  .F g J w y = 1 &.4.c u @ & * 2 t t t 3 R.^ ^ Z.] h.h.h.h.z.) 4.h r h q   8 c o.+ f . . - R.R 4 @ 4 4 & u O # : N ",
" .H y > - < J >.$.*.H.7 9 % < z ! m 9 4 & @ < t 2 t 9 G.^ L ` !.v.j.) ) ` S.k.6 v 6 1   : m o.+ @ : X - C T + @ @ f , t . o = N ",
"%.5.1 < q < w m.) Z.m.I T  .z $.!.s.Y 3 u & * < o = 9 b.!.C.P.p <.<./ 4.@.! e r r 7 > 9 X.p s 3 @ * < - N K 4 u , . . . o . ; H.",
"U { 1 X   q a e.3.B.b . X j { R ` s.C 3 @ @ @ > t q $ N ! 2 I.G e e G e ..V 6 r D X < 1 #.+.q 4 u u < % M R y q o o o X o , 1 c ",
"S 7.< t = q a J.W 5.  2 o % h H C.P.-.3 @ @ & f q q % H.x t j e e e e { x V 6 E # > 5 b &. .g 3 3 u   a J._ e.a t t 9 , u > v l ",
"S ,.s = q q ; 1.3.-.> X . :   Z _ s.=.4 @ @ @ * < X.J M | 1 i y.e e e { z V # * 5 -.H : I ..T N 2 Y 2 r.T.A.) C : u & & & u i V ",
"O.,.I.= =   : Z C.9 , X t   4 q.~ b.=.& 3 3 4 - ; 5 , 6. .8 # o.e y.G e } z M B +...%.} 6.[ x x } c V a._ _ a.f.K K M M B >...:.",
"O.m d q 9   9 X.*., & t X . f * j.M.i.f.F K T K B.Q S :.Q 1 7 a n 7.G s  .x ,.,.;.V %.j f : : t 0 v i | U *.i.6 r d # # 0 D n ..",
"O.<.r i :     9 l 9 4 O o 2 f , [ ` g.U ! %.%.%.P U ! $.+.0 7 O D e 7 w  .F + @ K.i / 9 * X . t 8 , K.B Q -.i # : 5 5 = . # i M "
};
