/* XPM */
static char *result[] = {
/* columns rows colors chars-per-pixel */
"64 64 255 2 ",
"   c #030202",
".  c #0B0302",
"X  c #080709",
"o  c #150907",
"O  c #1A130A",
"+  c #0E0F10",
"@  c #150D13",
"#  c #1B1512",
"$  c #1A1817",
"%  c #260E02",
"&  c #380D00",
"*  c #2E1300",
"=  c #261609",
"-  c #331400",
";  c #3A1501",
":  c #341B01",
">  c #3B1C01",
",  c #341B0C",
"<  c #3B1D0A",
"1  c #281917",
"2  c #231C1B",
"3  c #381E15",
"4  c #362101",
"5  c #3C2202",
"6  c #3D2707",
"7  c #3D230A",
"8  c #24221E",
"9  c #2C231C",
"0  c #3A2517",
"q  c #34241C",
"w  c #1C1F20",
"e  c #291E22",
"r  c #351C22",
"t  c #1E2323",
"y  c #2C2323",
"u  c #292728",
"i  c #2C2E2F",
"p  c #362725",
"a  c #342A2C",
"s  c #3B2D2C",
"d  c #38322B",
"f  c #362C33",
"g  c #3C2D33",
"h  c #343233",
"j  c #3C3334",
"k  c #3D343A",
"l  c #393938",
"z  c #421D01",
"x  c #461B04",
"c  c #432303",
"v  c #4A2504",
"b  c #442B04",
"n  c #4B2B04",
"m  c #43250B",
"M  c #4B260B",
"N  c #442B0B",
"B  c #4A2C0C",
"V  c #532A0A",
"C  c #493207",
"Z  c #4C320B",
"A  c #553B06",
"S  c #52330D",
"D  c #422612",
"F  c #452A12",
"G  c #4B2C13",
"H  c #482B19",
"J  c #522E14",
"K  c #582D14",
"L  c #4C3314",
"P  c #4A3616",
"I  c #4C331B",
"U  c #533414",
"Y  c #5B3716",
"T  c #543A14",
"R  c #53341B",
"E  c #543A1C",
"W  c #5B3B1D",
"Q  c #643A0E",
"!  c #673A19",
"~  c #643C1D",
"^  c #442D27",
"/  c #463529",
"(  c #553C23",
")  c #563827",
"_  c #5B3C23",
"`  c #412D34",
"'  c #472F38",
"]  c #433335",
"[  c #433B34",
"{  c #43343A",
"}  c #433C3C",
"|  c #4B3939",
" . c #563C37",
".. c #643B23",
"X. c #6A3E23",
"o. c #683E2A",
"O. c #703E22",
"+. c #3B403C",
"@. c #5A4209",
"#. c #5B431A",
"$. c #6B510B",
"%. c #6B441D",
"&. c #684918",
"*. c #73461C",
"=. c #6B5011",
"-. c #6C5218",
";. c #5C4224",
":. c #584427",
">. c #5C432B",
",. c #46423B",
"<. c #4C413C",
"1. c #5A4636",
"2. c #55443D",
"3. c #634424",
"4. c #6C4324",
"5. c #684B24",
"6. c #63452A",
"7. c #6C442B",
"8. c #644A2C",
"9. c #6B4D2D",
"0. c #764726",
"q. c #754B2C",
"w. c #7D4B2B",
"e. c #6A5427",
"r. c #75552A",
"t. c #654C33",
"y. c #6C4D34",
"u. c #674738",
"i. c #644C3B",
"p. c #744C32",
"a. c #7A4D35",
"s. c #6C5234",
"d. c #665438",
"f. c #6C523C",
"g. c #735333",
"h. c #7D5233",
"j. c #765837",
"k. c #755B3C",
"l. c #795B3C",
"z. c #79632D",
"x. c #7A6338",
"c. c #4A3C41",
"v. c #4A4644",
"b. c #534442",
"n. c #544B44",
"m. c #594A47",
"M. c #554C4A",
"N. c #59524B",
"B. c #5C534C",
"V. c #585653",
"C. c #674D46",
"Z. c #714B43",
"A. c #675648",
"S. c #735B42",
"D. c #765A47",
"F. c #635B53",
"G. c #685B56",
"H. c #745D55",
"J. c #5A635F",
"K. c #7B6344",
"L. c #786449",
"P. c #6C6259",
"I. c #746750",
"U. c #736354",
"Y. c #796858",
"T. c #616262",
"R. c #756B67",
"E. c #7B6C62",
"W. c #70716E",
"Q. c #7C7369",
"!. c #844C26",
"~. c #834C2B",
"^. c #845228",
"/. c #83512C",
"(. c #975B2A",
"). c #834E32",
"_. c #835332",
"`. c #875936",
"'. c #915F37",
"]. c #83643C",
"[. c #8B643C",
"{. c #87683B",
"}. c #986538",
"|. c #A76B38",
" X c #B16E33",
".X c #865D45",
"XX c #846442",
"oX c #8C6646",
"OX c #856A44",
"+X c #8B6B44",
"@X c #836549",
"#X c #856B4B",
"$X c #8B6C4C",
"%X c #936A44",
"&X c #89734B",
"*X c #977447",
"=X c #93744C",
"-X c #9D7A4D",
";X c #836B54",
":X c #8B6C53",
">X c #846A58",
",X c #8D7252",
"<X c #87745A",
"1X c #937552",
"2X c #9C7C54",
"3X c #957858",
"4X c #9A7C5A",
"5X c #AE7343",
"6X c #A77945",
"7X c #A37D4D",
"8X c #A27D52",
"9X c #A17E5A",
"0X c #856C64",
"qX c #857365",
"wX c #897668",
"eX c #8C7B6B",
"rX c #957967",
"tX c #877972",
"yX c #957B74",
"uX c #A27F6E",
"iX c #9F824F",
"pX c #9A825A",
"aX c #A5814C",
"sX c #A58254",
"dX c #A98457",
"fX c #A4845B",
"gX c #93826D",
"hX c #998468",
"jX c #8D847A",
"kX c #948373",
"lX c #9A8572",
"zX c #988779",
"xX c #9D927D",
"cX c #A78865",
"vX c #A68B78",
"bX c #B08D7D",
"nX c #A8947A",
"mX c #B39679",
"MX c #978A83",
"NX c #96908C",
"BX c #9D9489",
"VX c #AB8C84",
"CX c #B18F84",
"ZX c #A89887",
"AX c #B69788",
"SX c #A99B94",
"DX c #B69E94",
"FX c #ACA28A",
"GX c #B6A48B",
"HX c #ADA192",
"JX c #B5A596",
"KX c #B5A9A1",
"LX c #C3A998",
"PX c #C6B6AA",
"IX c #D0C3B1",
/* pixels */
":.#X#Xt.< ) p.Z..Xo.p.7.o.o._ - m t.g.g.x.x.x.k.#.: , P ;.: 8.l.W v &XfX-XfXsX{.oXoX@XrXs.y.G x L > G :X>X_ I vXmX>.I y.l.K.k.P ",
"b s.&XK.M x o.7.o.o..._ o.6.> ) B : N T Z #.#.6 6 f.0 >.vXF : 5 c z #XpXfX-X[.[.[.OX@X4Xs.s.W > c < 9.AXvXf.* H f.m - z M B v - ",
"c : ;.E > > z ~ o.p.X.4.W B - R 6.> 5 6 7 BXZXS.6.LXD., f.R 5 5 < L #XpX{.x.{.{.*X=X,XcX#X9.c p.%X3.c L x * J ) K ..o...K V M V ",
"Y c > > v c ; > M K v z ; > B z 5 5 C e.jXBXKXjXQ.>X( : < 6 c W 6.H >.pX&X&X+X2X3X#Xd.8.S.L - U `.g.> c m J p.a.h.`.).w.`.).w.0.",
"q.q.S v v n v 5 > c 5 b n c b S @.-.&.I.hXxXGXxXxXQ.E.6 C C j.#X,Xk.% s.hX#XL.f.) / ^ 1.1.: m 5 B 5 Z 5.z M p.h.).).~.~.!.!.).).",
"/.h.q.~ v v Z 3.3.e.n 5 c A &.-.$.-.-.&XgXlXHXIXzXFXjXx.b 6 5.x.g.C 5 5 N 6 H 0 i.wXzXZXGXxX;.c b : 5.4Xq.z `.q.~.~.!.~.~.!.!.!.",
"w.h.0.`.4.z U W #.T : : C T e.=.$.$.$.-.pXxXZXIXFXHXW.pX$.A : 5 c - v v #.E : 7 zXZXFXZXZX#X5 B b C : T T > 4._.).).~.~.!.~.!.!.",
"!././.q.p.M - 5 4 * N 5 A @.@.-.$.$.$.$.hXJXnXIXJXjXhX$.=.-.&.5 5 Z 3.x.#X#XT 6 I >.d.L.F * z c b 6 b : > c ~ p.a.~.!.~.~.~.~.~.",
"~.).).).p.M < m 0 D 7 : #.-.A @.@.$.=.pXjXBXnXSXJXE.{.-.=.=.&.e.5 s.,XOX@X#X5.5 5 : : - V *.*.=.n b 6 B v z U p.O._.w.)._.~.w._.",
"!.0.w.X.p.M y.yXnXi.7 4 C e.@.@.@.x.J.N.FXFXZXZXBXF.$.$.-.-.-.&.4 P g.g..X@Xl.m k.k.m ~ [.[.(.}.&.5 Z W W M v 6.0.! ! 0.4.%.q.4.",
"! O.X...7.x rXAXCXnXH : 6 #.@.@.@.C pXxXHXHXHXSXZXI.z.&Xz.&.-.e.Z * c - x M B m l.,XY ~ }.}.(.'.5.c %.3.8.R x X.o.~ ! ! ! X.X.X.",
"..O.~ o.S.; > >XCXvX( 6 6 @.-.C @.@.-.BXPXKXKXSXSXn.N.I.I.J.L.I.A.d.3.X.Q v ; c : _ c c r.^.^.^.0.z v J R M ; Y h.p.7.X.......4.",
"o.o.p.7.z > G - y.D.5 5 C C z.e.=.@.e.xXjXKXPXSXSXb.n.V.    X       Y.4X'.%XQ n c n Z ; 4.%Xh.[.4.z z > > 5 < W 7.4.a.7.K Y o...",
"Z.p._ ; - c n W c - 5 C C #.-.-.e.z.pXxXtXKXSXMXB.d o . u O   .     u V.hXhXwXA.x.e.Z > > Y V v - z G c 6 F > L E J R Y ..p.p.o.",
") x * ; T &.{.fX2X5.b 6 6 C 6 6 C @.z.MXzXBXtX#   V.Q.# y h . .             u v.P.N 5 B c c ; ; c v Z E P 6 5 : N R G J R ..o..X",
", < c 9.2XdXsXsXsXfXe.6 C 6 6 6 6 C :.MXjXNX=   . MXNXP.p d 9 y 8 $       . 0XU ;XE s.#.4.~ ~ Y Z 5 C 6.C E vXL.m 6 m J K M H D ",
"x < %.cXsX-XaXaXsX7XfX5.> : 5 4 4 6 P I.Q.y   T.V.NXY.ZX0 . . a a 8 y u     q tXtXzX:Xr.%.&.%.*.&.Q c > - <XLXnXB c c c m m < < ",
"m c q.fX8X7XaX7X7XsX*X=XZ m N : 4 4 #.| # M.a R.KXyXZXJX/ o o c.# u # ,.R.3 G.>X|  .zX].*.*.%.&.! &.%.Y N F U N z c > - - > > 8.",
"c c 5.fX8XaX7XdXsX*X[.1Xj.N 3.8.: 6 qX2.MXm.tX` . G.vX .H.H ^ 1 | m.y 1 G.yXwXvXvX .V.5.&.%.*.%.%.%.3.W F F : F $X1X*X+Xr.> Y T ",
"> 5 S sXsXsX8X8X+X`.].3X1XG > 5 4 0 SXKXG.^ m.1 1  .E.rXrX .1  .A.m.{ { 1 m.H.yXZXzX9 # qXK.W Q Y S U ;.L I F k.hX2XfXfXfX+Xc > ",
"N b #.pXfXsX-X+X{.+XoX=X#X9.L 6 6 gXKXQ.. 0 O m.j o ^  .0 7 2.A.G.b.G.3   m.H.o A.2.p $ V.g.U S Z T ;.P 4 : : s.$X+X+X2X2XfX].> ",
"N 6 j.pX2X=X{.{.{.OX#X#X#X9.t.5 6 Q.gXY.C.1.R.jXs . = ^ 2.N.m.B.2.G.c.o   Q.eXq o q u jXW.Y.6._ 3.3.P * * 7 4 R ,X,X].+XcX9X+Xc ",
"6 5 k.pX&X{.{.{.].].OXpX@X8.6.7 x.V.jXjXxXA.j 8   # s B.A.m.F.2.B.F.v.e t SXjXE.C.s n.u R.R.qXwXf.;.U.Y.:.H 6 7 I :X,XK.$XuX$XG ",
"N 5 #.pXK.{.OX&X3XpX4XvX@X8.f.P.T.MXxXA.0 O   Y.W.a 1 q q m.1 O 2 # X t h v.BXP./ <.V.O   p tX .B.,.V.tXQ.F >.7 L R :X,X:X@X3X_ ",
"6 6 4 #XmX1XpXpX,XL.t.k.,XE P Q.l R.tX| 2.I.[ SXSXM.k c.1 . ] [ [ d + w u   W.KXQ.M.a $   2 ` A.U.P.R.gXB._ B i.1.A.;Xs.e.x.;XG ",
"N Z : :.s.8.>.>.( ( _ 6.k.F.i.W.@ G.<.eXHXzXjXT.V.v.k M.tX .^ n.M.} u e i $ e v.G.f u X X @ i.E rXqXeXqX2 n.U.[ <.2.>.e.s.:.T * ",
"6 5 P * : D H < p D D 7 4 n.gXn.+ # d BXSXjXv.i v.a 2 ' E.P.| d | 2 u @ u f @ 2 M.u X X X X $ t.fXmXnXqXP.vXhXA.9 :.6 6 6 C C Z ",
"Z b 6 L.lXrX0X0X ., H < 6 pXQ.d   O j 1 d h   t $ X 2 p | / O n.| a g + w u a d i h + X   k $ v.fX7X8XcX7XsXfXfXz.5 b &.x.x.OXx.",
"* 6 : D.nXAXJXLXLXC.< 7 _ vXQ.8   t h ,.8 u i l t   9 ,.:.<.p 9 q e o @ k c.f e f k h $ X + R.xX2X].[.}.%X%X6XsX2XZ C 5.e.z.5.b ",
") _ R < H S.wX>Xu.H ) m t.E.tXu   + ,.V.u $ t   X $ 9 wX/ Q.2.[ | ] a @ $ @ 1 # p ' f c.w   . a lXsXaXsX8X8X8X9X=XB 5 : 4 4 6 b ",
"AXVXVXVXf.* 5 4 : #XGX;X: D.Q.#   d d ,.d 8 t 2 $ d E.nXL.A.C.U.<.p h 2 e r c.' c.p k k l u . 2 v.<.wXdXdXdX9X2XXXU J m o.:XvXmX",
"CXVXVXCXvXH 7 N 6 U cXhX7 1.Y.# d ,.v.,.l O u + o = E.;X7 i.C.2.q p 8 e $ p ` ` p c.f h f c./ d nXdXfXdX%X=X%X%XW - u.rXAXAXCXbX",
"VXCXCXbXvXD.< m C C N N :.A.Y.8 h u h c.k V.k e r ^ H.lXI N.m.zX1.[ d 8 y f ] ' ' ] { s j j { ` y wXOXXX{.K.&Xl.m :XAXbXbXbXbXbX",
"CXVXVXrXtXrXD y.#XOX9.5 :.d.I.$   v.j ] e x 1.r ' 3 ^ xXE.Y.:.q q o . $ a h { p ` { a } l j ` { { p E.4X#XOXx.> W AXbXCXbXCXCXbX",
"VXrX0XrXVXZ.3 D.s.( N 5 C #.d.9 . e T.V.# g.Y m.1 r 0 i./ O 2.= 0 /     h f g G.b.e v.a j } ` ` g { a { S.B N R > >XCXCXVXVXCXCX",
"0XrXrXuX0X& ; M U > > C x.K.t.[ . . b.M.$ Y.%.7.r ' o O O = 0 E.q F.B.2 h a R.rXrXE.s y } f ] ' ' ] j j s A.s.rX_ 3 rXCXVXVXyXwX",
"yXyXuXuXG x l.8X9XfXh.c 8./ 1.B.X . e y i a s.>X/ G.% | W.2.q 0 b.SXN.y h k u KXGX@X .F.} e a ' ` { { ` a e 2.7.) & ) yXyXwXyXyX",
"yXyXyXZ.K 2XcX9X9X8XfX=Xb D 1.P.  . X u u c.S.0 C. .1 B.,.V.N.d MXQ.s @ a h k f Y.< M K D.rXH.| k p ' ' { b.e i.& ) x  .yXyXyXyX",
"0X.XZ.r $XdX8XdXaX-XsX-X#XB 1.n.# X + i @ W.DX3 D. .p N.W.v.J.} . . .   l k k f k Z.o.& ~ w.a..X.XoXr f e y c.] o..X.XH H.wX0X0X",
"G.' K x 2XsX7X7X8X{.[.oX$XE #.t.a   h w X Z.`.^ .X .p M.J.J.V.v.M.o y . f k g k f g 1.; Y a.a.w.~.~.oX:XH.m.] p e Z.:XH H Z.D.Z.",
"r r rXg.=XaX-XsX7X].[.+X$X_ b 1.V.. $ X   y.A. .Z.C.1 v.W.J.T.M.$ +.v.c.p k ] ` k ` f u.M p.p.).).~.~.~.~.~..X:XZ.2.6.; < F ) D ",
"H Z.LXS.2XsXaXiX{.oX*X].3X_ U 1.A.8 +   X d.D.H Z. .. v.W.J.+.    +.V.M.] s g ' { { g a u.7.X.X.4.O.! 0.0.%.w.7.M > F m _ @X:XXX",
"K ; R W pXiX&X{.+X].].+X3X..<Xj 6.n.      8.J S.3 =     +.X X   + i l v.` s ] | ` r { c.e Y.a.7.7.0.p.o.0.p.7...B :X;XF G l.p...",
"x M x z &.+X+X].XX#X1X$X_ > ..>.1.U.    $ s.3.3.A.=     X X   X hXkXG.v.2.` s s c.' g k { a f.v J m R _ ..j.6.m G f.k.U - & ; ; ",
"|.6X^.x z J g.rXhX;Xk.( 5 5 5 : A.A.F.$ } U E c / U.M.8 8 + rX2 cXcXG.tXb.d d [ { g f c.` f y 6.- 7 < < < m < : 7 7 5 5 Y r.(.|.",
"6X|.|.Q 4.@X; _ 1.I 7 ( k.,XK.G A.N.A.| N.> : - g.G.M.a hXnX}.3XiXpXY.P.m.M.F.9 a f c.c.r c.' p S.7 _ E x y.u.m _ XXj.V 0.5X X5X",
" X}.!.}.x X.G 7 P 4 : S.K.E G - >.t.: = * D < M &X<X2.d hXdX7X[.z.{.gXG.b.d nXlXV.c.2 ` c.' ` ' j ) G m I :X:X_ - v n *. XaX X X",
"(.(.(.5XV x R 1XpXK.F 4 P S.;XlXlXlXlX;X^ 7 _ W 1XgXQ.<.,.pX[.{.x.x.hXzXvXn.[ K.) ) R.{ r ` ' ' ` r Y.u.R ; G c L #.v ^.5X X X X",
"(.}.|.6X! O.`.uX-XfX-X6 ;.FXGXGXFXFXFXGXmX<X: 3.$Xb.| ] 9 rX[.{.{.].eXB.Y./ # D.7 m c E H.b.p y } ] c.LXbX( < m _ 9.z %.6X}.|.(.",
"|.}.(.! v J 7.4XfX8XcX8.% E.ZXnXZXZXlXxXnXGXE B 3XqXG.E.s yX+X].[.[.hX<./ <.d f.m j.=Xe.c > C.0X| { f R.8.= 7 ( L - > Y %X'.}.}.",
"Q Y v > U G N K.1X:X,XK.: 1.kXeXgXqXi.S.<X<XE R 7.0Xc.H.a b.OX+X-XfXhXY.E.b.q M.g.sXsXdX}.&.> z 6.H.c.1 / d.hXFXnXf.7 x K K ! O.",
"> - * _ ,Xk.> >.@XL.S.>.: R Y.S.I.S.( < #.6 8.I H H.r ' # lXpXpX4X&Xx.| <.M.y F.1XsX7XaXdXiX%.c _ / ; A.gXGXFXxXZXJX<X7 ; x x x ",
"g.9.8.P b 6 : B :.( >.7 : > 5 P U B > L 5 4 e.#.H ;.Y.a + vX&XK.d.t.8.I.j @   wX3XdX6X8XaX7X%XU 8.L.6 <XGXnXFXFXFXFXGX;X6 N r.x.",
"$X$X&X:.: e.e.N : 4 c z T Y 5 3.S n Y A S 5 k.mXK.F S.n.h Y.8.>.1.t.>.E F.  @ D.3X9XdXdX*X{.oXh.: P t.hXFXFXxXHXBXnXlXhXE T j.OX",
"[.{.$XK.L 3.E b 5 6 S T &.%.b - A =.-.=.r.e.C 6 6 : m B.X I.>.3.E Y U L ( V.i H.@XfX2X8X{.{.&Xj.5 N :.nXmXFXFXFXFXgXqXlXi.: 9.x.",
"h.r.~ b : > c W U c U n U S - S -.=.=.-.=.z.L.@.N k.s.n.8 A.P G W m m V %.B.k m.5.1X2XpX+X#X#X&XB v Z hXhXFXFXZXjXtXkXzXt.: m ;.",
"x V v V v c E 9.G - < D m - n -.=.z.I.&X&X<XI.I.Y.eXY.k p p @X<XrXt.l.j.g.2./ s k.uXbXmXmXmXhXrXP g.#.hX;XJXZXzXyXeXeXlXd.7 5 : ",
"x `.[.'.].n - < z M R D < > C 5.e.k.Y.<XgXgXgXgXY.E.M.G.2.F.H.I.U.D.H.G.G.<.A., 1.:X:X9XcXnXhXhXwX<Xt.rX;XnXyXkXeXyXgXlX1.U g.b ",
"K ).'.%Xw.z M 0.7.q.0.p.6.L c T e.e.e.d.x.d.I.I.<XE.wXyXBXzXgXeXeXeXzXzXeXN.j 9 m.wXY.L.L.U.I.I.A.B.M.P.K.lXgXeXgXlXgXL.6 x.{.#.",
"v `.}.!.v x p.).~./.0./.h.4.n > 4 4 4 : P P 4 6 rXD.L.0X<X<X>XZ.DXkXeXeXqXP.v.d m.G.H.P.P.P.F.F.Y.Q.P.( ( L.wXeXzXqX;X:.4 z.e.@.",
"Q }._.V & K ~.~.!.!.^.!.w.h.q.M : : : % % : * : c - K p.7...0.G @XL 5 S z.dXmXtX@X_ H >.f.L L $X<X1X6 6 6 :.kXkXY.U. .< 6 P 6 4 ",
"x %.! x x O.).).!.!.!.!.w.w._.~ H S.E 4 N N 8.g.6.G - 6._ o.R ; : 4 r.7XaX7X-XsXcX2X3.B $XY > Y 5.N : :.( * 0 1./ 3 - 3 0 6 E Z ",
"E : > > J a.a.~.~.~.!.~.~.).a.R 7 W s.j.OXOXOX$X$X$XR 7 m > > m m g.cXaXaXaXaX8X2X#X3X3.v 5 c G U : #.8.R 7 ) ;X6.< I y.k.oX&X+X",
"#.G :.< H p.w.~.q._.0.~.!.).O.M c g.XX+XOX+X].@XXXy.U > - D ;X;X6.5.dXaX6XaXaX-XoXXX:XcX;.N M XX1X;.N B > F mXAXnX) _ $X@X$X].]."
};
